!!!!SEGMENT: pl-cz--iii-591--004_rygall-ignacy--dum-natus-esset-coro-ergo-sine-fine.krn
!!!cenid: 17xx:1117
!!!COM: Rygall, Ignacy
!!!COM-rismID: pe30110281
!!!CDT: <1750->1799
!!!CNT:
!!!OPR: Dum natus esset
!!!OTL: Coro - Ergo sine fine
!!!OMV: 004
!!!PDT: 1775
!!!AGN:
!!!SMS-siglum: PL-CZ
!!!SMS-shelfmark: III-591
!!!SMS-shelfwork: 001-004 M
!!!SMS-variant:
!!!SMS-altvar:
!!!NIFC-rismSourceID: 300001123
!!!NIFC-islandoraID: pl-cz:39414
!!!URL-pdf-islandora: https://repozytorium.nifc.pl/islandora/object/pl-cz%3A39414/datastream/PDF/view
!!!URL-scan:
!!!ONB-nifc: UWAGA: części Dum natus esset: Recitativo – Allegro moderato, Cum sis ipse (Andantino), Aria – Cape panis angelorum, Coro – Ergo sine fine
!!!AIN: 2 bass 1 cbass 2 cor 2 soprn 2 violn
!!!key: D
**kern	**dynam	**kern	**dynam	**kern	**dynam	**kern	**text	**kern	**text	**kern	**text	**kern	**kern	**dynam	**kern	**dynam
*group3	*	*group3	*	*group3	*	*group2	*	*group2	*	*group2	*	*	*group1	*	*group1	*
*part9	*part9	*part8	*part8	*part7	*part7	*part6	*part6	*part5	*part5	*part4	*part4	*part3	*part2	*part2	*part1	*part1
*staff9	*	*staff8	*	*staff7	*	*staff6	*staff6	*staff5	*staff5	*staff4	*staff4	*staff3	*staff2	*	*staff1	*
*I"Baſso	*	*I"Violino Secondo	*	*I"Violino Primo ?	*	*I"Coro [Basso]	*	*I"Canto 2do	*	*I"Coro Canto 1mo	*	*I"Baſso Solo	*I"Cornu 2do in D:	*	*I"Cornu 1.mo in D	*
*I'cb	*	*I'vl 2	*	*I'vl 1	*	*I'Coro B	*	*I'Coro S 2	*	*I'Coro S 1	*	*I'B	*I'cor 2 in D	*	*I'cor 1 in D	*
*Icbass	*	*Ivioln	*	*Ivioln	*	*Ibass	*	*Isoprn	*	*Isoprn	*	*Ibass	*Icor	*	*Icor	*
*ICstr	*	*ICstr	*	*ICstr	*	*ICvox	*	*ICvox	*	*ICvox	*	*ICvox	*ICbras	*	*ICbras	*
*clefF4	*	*clefG2	*	*clefG2	*	*clefF4	*	*clefC1	*	*clefC1	*	*	*clefG2	*	*clefG2	*
*	*	*	*	*	*	*	*	*	*	*	*	*	*ITrd6c10	*	*ITrd6c10	*
*k[f#c#]	*	*k[f#c#]	*	*k[f#c#]	*	*k[f#c#]	*	*k[f#c#]	*	*k[c#f#]	*	*	*k[f#c#]	*	*k[f#c#]	*
*D:	*	*D:	*	*D:	*	*D:	*	*D:	*	*D:	*	*	*D:	*	*D:	*
*M4/4	*	*M4/4	*	*M4/4	*	*M4/4	*	*M4/4	*	*M4/4	*	*	*M4/4	*	*M4/4	*
*met(c)	*	*met(c)	*	*met(c)	*	*met(c)	*	*met(c)	*	*met(c)	*	*	*met(c)	*	*met(c)	*
*2\right	*	*	*	*	*	*	*	*	*	*	*	*	*	*	*	*
!LO:TX:b:B:t=allo vivace	!	!LO:TX:a:B:t=allo	!	!LO:TX:a:B:t=allo vivace	!	!LO:TX:t=P:problem=brak przedtaktu	!	!LO:TX:t=P:problem=brak przedtaktu	!	!LO:TX:t=P:problem=brak przedtaktu	!	!LO:TX:t=P:problem=partia nie występuje w części "Ergo sine fine"	!LO:TX:a:B:t=allegri\nmilto	!	!LO:TX:t=P:problem=brak przedtaktu	!
8r	p	8f#/	p	8a/	.	8ryy	.	8ryy	.	8ryy	.	8ryy	8r	.	8ryy	.
=1	=1	=1	=1	=1	=1	=1	=1	=1	=1	=1	=1	=1	=1	=1	=1	=1
*tremolo	*	*	*	*	*	*	*	*	*	*	*	*	*	*	*	*
!	!	!	!	!	!	!	!	!LO:TX:a:t=19	!	!LO:TX:a:B:t=allo vivace	!	!	!	!LO:DY:rj	!LO:TX:b:B:t=allo molto	!LO:DY:rj
8D\L	.	16f#/LL	.	4dd\	p	00r	.	00r	.	00r	.	1ryy	4F#/	p	4d\	p
.	.	16a/	.	.	.	.	.	.	.	.	.	.	.	.	.	.
8D\	.	16f#/	.	.	.	.	.	.	.	.	.	.	.	.	.	.
.	.	16a/JJ	.	.	.	.	.	.	.	.	.	.	.	.	.	.
8D\	.	16f#/LL	.	8dd\L	.	.	.	.	.	.	.	.	8F#/L	.	8d\L	.
.	.	16a/	.	.	.	.	.	.	.	.	.	.	.	.	.	.
8D\J	.	16f#/	.	8dd\J	.	.	.	.	.	.	.	.	8F#/J	.	8d\J	.
.	.	16a/JJ	.	.	.	.	.	.	.	.	.	.	.	.	.	.
8D\L	.	16f#/LL	.	4dd\	.	.	.	.	.	.	.	.	4F#/	.	4d\	.
.	.	16a/	.	.	.	.	.	.	.	.	.	.	.	.	.	.
8D\	.	16f#/	.	.	.	.	.	.	.	.	.	.	.	.	.	.
.	.	16a/JJ	.	.	.	.	.	.	.	.	.	.	.	.	.	.
8D\	.	16f#/LL	.	4dd\	.	.	.	.	.	.	.	.	4F#/	.	4d\	.
.	.	16a/	.	.	.	.	.	.	.	.	.	.	.	.	.	.
8D\J	.	16f#/	.	.	.	.	.	.	.	.	.	.	.	.	.	.
.	.	16a/JJ	.	.	.	.	.	.	.	.	.	.	.	.	.	.
=2	=2	=2	=2	=2	=2	=2	=2	=2	=2	=2	=2	=2	=2	=2	=2	=2
8E\L	.	16f#/LL	.	4dd\	.	.	.	.	.	.	.	1ryy	4F#/	.	4d\	.
.	.	16a/	.	.	.	.	.	.	.	.	.	.	.	.	.	.
8E\	.	16f#/	.	.	.	.	.	.	.	.	.	.	.	.	.	.
.	.	16a/JJ	.	.	.	.	.	.	.	.	.	.	.	.	.	.
8E\	.	16g/LL	.	4cc#\	.	.	.	.	.	.	.	.	4A/	.	4e\	.
.	.	16a/	.	.	.	.	.	.	.	.	.	.	.	.	.	.
8E\J	.	16g/	.	.	.	.	.	.	.	.	.	.	.	.	.	.
.	.	16a/JJ	.	.	.	.	.	.	.	.	.	.	.	.	.	.
8E\L	.	16g/LL	.	4cc#\	.	.	.	.	.	.	.	.	4A/	.	4e\	.
.	.	16a/	.	.	.	.	.	.	.	.	.	.	.	.	.	.
8E\	.	16g/	.	.	.	.	.	.	.	.	.	.	.	.	.	.
.	.	16a/JJ	.	.	.	.	.	.	.	.	.	.	.	.	.	.
8E\	.	16g/LL	.	8r	.	.	.	.	.	.	.	.	4r	.	4r	.
.	.	16a/	.	.	.	.	.	.	.	.	.	.	.	.	.	.
8E\J	.	16g/	.	8a\	.	.	.	.	.	.	.	.	.	.	.	.
.	.	16a/JJ	.	.	.	.	.	.	.	.	.	.	.	.	.	.
*Xtremolo	*	*	*	*	*	*	*	*	*	*	*	*	*	*	*	*
=3	=3	=3	=3	=3	=3	=3	=3	=3	=3	=3	=3	=3	=3	=3	=3	=3
8C#/L	.	16e/LL	.	4gg\	.	.	.	.	.	.	.	1ryy	4A/	.	4e\	.
.	.	16a/	.	.	.	.	.	.	.	.	.	.	.	.	.	.
8AA/	.	16e/	.	.	.	.	.	.	.	.	.	.	.	.	.	.
.	.	16a/JJ	.	.	.	.	.	.	.	.	.	.	.	.	.	.
8C#/	.	16e/LL	.	8gg\L	.	.	.	.	.	.	.	.	8A/L	.	8e\L	.
.	.	16a/	.	.	.	.	.	.	.	.	.	.	.	.	.	.
8AA/J	.	16e/	.	8gg\J	.	.	.	.	.	.	.	.	8A/J	.	8e\J	.
.	.	16a/JJ	.	.	.	.	.	.	.	.	.	.	.	.	.	.
!	!	!LO:LB:g=original	!	!	!	!	!	!	!	!	!	!	!	!	!	!
8C#/L	.	16e/LL	.	4gg\	.	.	.	.	.	.	.	.	4A/	.	4e\	.
.	.	16a/	.	.	.	.	.	.	.	.	.	.	.	.	.	.
8AA/	.	16e/	.	.	.	.	.	.	.	.	.	.	.	.	.	.
.	.	16a/JJ	.	.	.	.	.	.	.	.	.	.	.	.	.	.
8C#/	.	16e/LL	.	4gg\	.	.	.	.	.	.	.	.	4e\	.	4g\	.
.	.	16a/	.	.	.	.	.	.	.	.	.	.	.	.	.	.
8AA/J	.	16e/	.	.	.	.	.	.	.	.	.	.	.	.	.	.
.	.	16a/JJ	.	.	.	.	.	.	.	.	.	.	.	.	.	.
=4	=4	=4	=4	=4	=4	=4	=4	=4	=4	=4	=4	=4	=4	=4	=4	=4
*tremolo	*	*	*	*	*	*	*	*	*	*	*	*	*	*	*	*
8D\L	.	16f#/LL	.	4gg\	.	.	.	.	.	.	.	1ryy	4e\	.	4g\	.
.	.	16a/	.	.	.	.	.	.	.	.	.	.	.	.	.	.
8D\	.	16f#/	.	.	.	.	.	.	.	.	.	.	.	.	.	.
.	.	16a/JJ	.	.	.	.	.	.	.	.	.	.	.	.	.	.
8D\	.	16f#/LL	.	4ff#\	.	.	.	.	.	.	.	.	4d\	.	4f#\	.
.	.	16a/	.	.	.	.	.	.	.	.	.	.	.	.	.	.
8D\J	.	16f#/	.	.	.	.	.	.	.	.	.	.	.	.	.	.
.	.	16a/JJ	.	.	.	.	.	.	.	.	.	.	.	.	.	.
8D\L	.	16f#/LL	.	4ff#\	.	.	.	.	.	.	.	.	4d\	.	4f#\	.
.	.	16a/	.	.	.	.	.	.	.	.	.	.	.	.	.	.
8D\	.	16f#/	.	.	.	.	.	.	.	.	.	.	.	.	.	.
.	.	16a/JJ	.	.	.	.	.	.	.	.	.	.	.	.	.	.
8D\	.	4r	.	8ff#\L	.	.	.	.	.	.	.	.	4r	.	4r	.
8D\J	.	.	.	8dd\J	.	.	.	.	.	.	.	.	.	.	.	.
*Xtremolo	*	*	*	*	*	*	*	*	*	*	*	*	*	*	*	*
!	!	!	!	!	!	!	!	!	!	!	!	!	!LO:LB:g=original	!	!	!
=5	=5	=5	=5	=5	=5	=5	=5	=5	=5	=5	=5	=5	=5	=5	=5	=5
!	!	!	!LO:DY:t=mezo	!LO:TX:t=P:problem=mixed beam	!	!	!	!	!	!	!	!	!	!	!	!
4D\|	mf	2r	mf	16a/LL	mf	00r	.	00r	.	00r	.	1ryy	1d	mf	1f#	mf
.	.	.	.	16aa\	.	.	.	.	.	.	.	.	.	.	.	.
.	.	.	.	16a/	.	.	.	.	.	.	.	.	.	.	.	.
.	.	.	.	16aa\JJ	.	.	.	.	.	.	.	.	.	.	.	.
!	!	!	!	!LO:TX:t=P:problem=mixed beam	!	!	!	!	!	!	!	!	!	!	!	!
4F#\|	.	.	.	16a/LL	.	.	.	.	.	.	.	.	.	.	.	.
.	.	.	.	16aa\	.	.	.	.	.	.	.	.	.	.	.	.
.	.	.	.	16a/	.	.	.	.	.	.	.	.	.	.	.	.
.	.	.	.	16aa\JJ	.	.	.	.	.	.	.	.	.	.	.	.
*	*	*	*	*2\right	*	*	*	*	*	*	*	*	*	*	*	*
*	*	*	*	*tremolo	*	*	*	*	*	*	*	*	*	*	*	*
!	!	!	!	!LO:TX:t=P:problem=mixed beam	!	!	!	!	!	!	!	!	!	!	!	!
4A\|	.	4r	.	16aLL/	.	.	.	.	.	.	.	.	.	.	.	.
.	.	.	.	16aa\	.	.	.	.	.	.	.	.	.	.	.	.
.	.	.	.	16a/	.	.	.	.	.	.	.	.	.	.	.	.
.	.	.	.	16aa\	.	.	.	.	.	.	.	.	.	.	.	.
4d\|	.	4f# 4A/	.	16a/	.	.	.	.	.	.	.	.	.	.	.	.
.	.	.	.	16aa\	.	.	.	.	.	.	.	.	.	.	.	.
.	.	.	.	16a/	.	.	.	.	.	.	.	.	.	.	.	.
.	.	.	.	16aaJJ\	.	.	.	.	.	.	.	.	.	.	.	.
!	!	!	!	!LO:LB:g=original	!	!	!	!	!	!	!	!	!	!	!	!
=6	=6	=6	=6	=6	=6	=6	=6	=6	=6	=6	=6	=6	=6	=6	=6	=6
*	*	*^	*	*	*	*	*	*	*	*	*	*	*	*	*	*
!	!	!	!	!	!LO:TX:t=P:problem=mixed beam	!	!	!	!	!	!	!	!	!	!	!	!
(4c#\	.	8g/	1A	.	16aLL/	.	.	.	.	.	.	.	1ryy	1A	.	1e	.
.	.	.	.	.	16aa\	.	.	.	.	.	.	.	.	.	.	.	.
.	.	4g/	.	.	16a/	.	.	.	.	.	.	.	.	.	.	.	.
.	.	.	.	.	16aa\	.	.	.	.	.	.	.	.	.	.	.	.
4e\)	.	.	.	.	16a/	.	.	.	.	.	.	.	.	.	.	.	.
.	.	.	.	.	16aa\	.	.	.	.	.	.	.	.	.	.	.	.
.	.	4g/	.	.	16a/	.	.	.	.	.	.	.	.	.	.	.	.
.	.	.	.	.	16aaJJ\	.	.	.	.	.	.	.	.	.	.	.	.
!LO:LB:g=original	!	!	!	!	!LO:TX:t=P:problem=mixed beam	!	!	!	!	!	!	!	!	!	!	!	!
(4A\	.	.	.	.	16aLL/	.	.	.	.	.	.	.	.	.	.	.	.
.	.	.	.	.	16aa\	.	.	.	.	.	.	.	.	.	.	.	.
.	.	4g/	.	.	16a/	.	.	.	.	.	.	.	.	.	.	.	.
.	.	.	.	.	16aa\	.	.	.	.	.	.	.	.	.	.	.	.
4c#\)	.	.	.	.	16a/	.	.	.	.	.	.	.	.	.	.	.	.
.	.	.	.	.	16aa\	.	.	.	.	.	.	.	.	.	.	.	.
.	.	8g/	.	.	16a/	.	.	.	.	.	.	.	.	.	.	.	.
.	.	.	.	.	16aaJJ\	.	.	.	.	.	.	.	.	.	.	.	.
*	*	*v	*v	*	*	*	*	*	*	*	*	*	*	*	*	*	*
=7	=7	=7	=7	=7	=7	=7	=7	=7	=7	=7	=7	=7	=7	=7	=7	=7
!	!	!	!	!LO:TX:t=P:problem=mixed beam	!	!	!	!	!	!	!	!	!	!	!	!
4D\|	.	4f# 4A/	.	16aLL/	.	.	.	.	.	.	.	1ryy	1d	.	1f#	.
.	.	.	.	16aa\	.	.	.	.	.	.	.	.	.	.	.	.
.	.	.	.	16a/	.	.	.	.	.	.	.	.	.	.	.	.
.	.	.	.	16aa\	.	.	.	.	.	.	.	.	.	.	.	.
4F#\|	.	4r	.	16a/	.	.	.	.	.	.	.	.	.	.	.	.
.	.	.	.	16aa\	.	.	.	.	.	.	.	.	.	.	.	.
.	.	.	.	16a/	.	.	.	.	.	.	.	.	.	.	.	.
.	.	.	.	16aaJJ\	.	.	.	.	.	.	.	.	.	.	.	.
!	!	!	!	!LO:TX:t=P:problem=mixed beam	!	!	!	!	!	!	!	!	!	!	!	!
4A\|	.	4r	.	16aLL/	.	.	.	.	.	.	.	.	.	.	.	.
.	.	.	.	16aa\	.	.	.	.	.	.	.	.	.	.	.	.
.	.	.	.	16a/	.	.	.	.	.	.	.	.	.	.	.	.
.	.	.	.	16aa\	.	.	.	.	.	.	.	.	.	.	.	.
4d\|	.	4f# 4A/	.	16a/	.	.	.	.	.	.	.	.	.	.	.	.
.	.	.	.	16aa\	.	.	.	.	.	.	.	.	.	.	.	.
.	.	.	.	16a/	.	.	.	.	.	.	.	.	.	.	.	.
.	.	.	.	16aaJJ\	.	.	.	.	.	.	.	.	.	.	.	.
=8	=8	=8	=8	=8	=8	=8	=8	=8	=8	=8	=8	=8	=8	=8	=8	=8
*	*	*^	*	*	*	*	*	*	*	*	*	*	*	*	*	*
!	!	!	!	!	!LO:TX:t=P:problem=mixed beam	!	!	!	!	!	!	!	!	!	!	!	!
(4c#\	.	8g/	1A	.	16aLL/	.	.	.	.	.	.	.	1ryy	1A	.	1e	.
.	.	.	.	.	16aa\	.	.	.	.	.	.	.	.	.	.	.	.
.	.	4g/	.	.	16a/	.	.	.	.	.	.	.	.	.	.	.	.
.	.	.	.	.	16aa\	.	.	.	.	.	.	.	.	.	.	.	.
4e\)	.	.	.	.	16a/	.	.	.	.	.	.	.	.	.	.	.	.
.	.	.	.	.	16aa\	.	.	.	.	.	.	.	.	.	.	.	.
.	.	4g/	.	.	16a/	.	.	.	.	.	.	.	.	.	.	.	.
.	.	.	.	.	16aaJJ\	.	.	.	.	.	.	.	.	.	.	.	.
!	!	!	!	!	!LO:TX:t=P:problem=mixed beam	!	!	!	!	!	!	!	!	!	!	!	!
(4A\	.	.	.	.	16aLL/	.	.	.	.	.	.	.	.	.	.	.	.
.	.	.	.	.	16aa\	.	.	.	.	.	.	.	.	.	.	.	.
.	.	4g/	.	.	16a/	.	.	.	.	.	.	.	.	.	.	.	.
.	.	.	.	.	16aa\	.	.	.	.	.	.	.	.	.	.	.	.
4c#\)	.	.	.	.	16a/	.	.	.	.	.	.	.	.	.	.	.	.
.	.	.	.	.	16aa\	.	.	.	.	.	.	.	.	.	.	.	.
.	.	8g/	.	.	16a/	.	.	.	.	.	.	.	.	.	.	.	.
.	.	.	.	.	16aaJJ\	.	.	.	.	.	.	.	.	.	.	.	.
*	*	*	*	*	*Xtremolo	*	*	*	*	*	*	*	*	*	*	*	*
*	*	*v	*v	*	*	*	*	*	*	*	*	*	*	*	*	*	*
!	!	!LO:LB:g=original	!	!	!	!	!	!	!	!	!	!	!	!	!	!
=9	=9	=9	=9	=9	=9	=9	=9	=9	=9	=9	=9	=9	=9	=9	=9	=9
4d\	ff	4f#/	ff	4aa\	ff	00r	.	00r	.	00r	.	1ryy	4D/	ff	4f#\	.
*	*	*tremolo	*	*	*	*	*	*	*	*	*	*	*	*	*	*
!	!	!LO:TX:t=P:problem=mixed beam	!	!	!	!	!	!	!	!	!	!	!	!	!	!
8B\L	.	16dLL/	.	16ddd\LL	.	.	.	.	.	.	.	.	4r	.	4r	.
.	.	16dd\	.	16dd\	.	.	.	.	.	.	.	.	.	.	.	.
8B\J	.	16d/	.	16ddd\	.	.	.	.	.	.	.	.	.	.	.	.
.	.	16ddJJ\	.	16dd\JJ	.	.	.	.	.	.	.	.	.	.	.	.
*	*	*2\right	*	*	*	*	*	*	*	*	*	*	*	*	*	*
!	!	!LO:TX:t=P:problem=mixed beam	!	!	!	!	!	!	!	!	!	!	!	!	!	!
8A\L	.	16dLL/	.	16ccc#\LL	.	.	.	.	.	.	.	.	2r	.	2r	.
.	.	16dd\	.	16dd\	.	.	.	.	.	.	.	.	.	.	.	.
8A\	.	16d/	.	16ccc#\	.	.	.	.	.	.	.	.	.	.	.	.
.	.	16dd\	.	16dd\JJ	.	.	.	.	.	.	.	.	.	.	.	.
8G\	.	16d/	.	16bb\LL	.	.	.	.	.	.	.	.	.	.	.	.
.	.	16dd\	.	16dd\	.	.	.	.	.	.	.	.	.	.	.	.
8G\J	.	16d/	.	16bb\	.	.	.	.	.	.	.	.	.	.	.	.
.	.	16ddJJ\	.	16dd\JJ	.	.	.	.	.	.	.	.	.	.	.	.
!	!	!	!	!	!	!	!	!	!	!	!	!	!	!	!LO:LB:g=original	!
=10	=10	=10	=10	=10	=10	=10	=10	=10	=10	=10	=10	=10	=10	=10	=10	=10
4F#\	.	4d/	.	4aa\	.	.	.	.	.	.	.	1ryy	4D/	.	4d\	.
8B\L	.	16dd\LL	.	16ddd\LL	.	.	.	.	.	.	.	.	4r	.	4r	.
.	.	16dd\	.	16dd\	.	.	.	.	.	.	.	.	.	.	.	.
8B\J	.	16dd\	.	16ddd\	.	.	.	.	.	.	.	.	.	.	.	.
.	.	16dd\JJ	.	16dd\JJ	.	.	.	.	.	.	.	.	.	.	.	.
!	!	!LO:TX:t=P:problem=mixed beam	!	!	!	!	!	!	!	!	!	!	!	!	!	!
8A\L	.	16dLL/	.	16ccc#\LL	.	.	.	.	.	.	.	.	2r	.	2r	.
.	.	16dd\	.	16dd\	.	.	.	.	.	.	.	.	.	.	.	.
8A\	.	16d/	.	16ccc#\	.	.	.	.	.	.	.	.	.	.	.	.
.	.	16dd\	.	16dd\JJ	.	.	.	.	.	.	.	.	.	.	.	.
8G\	.	16d/	.	16bb\LL	.	.	.	.	.	.	.	.	.	.	.	.
.	.	16dd\	.	16dd\	.	.	.	.	.	.	.	.	.	.	.	.
8G\J	.	16d/	.	16bb\	.	.	.	.	.	.	.	.	.	.	.	.
.	.	16ddJJ\	.	16dd\JJ	.	.	.	.	.	.	.	.	.	.	.	.
=11	=11	=11	=11	=11	=11	=11	=11	=11	=11	=11	=11	=11	=11	=11	=11	=11
4F#\	.	4d/	.	4aa\	.	.	.	.	.	.	.	1ryy	4D/	.	4d\	.
8B\L	.	16dd\LL	.	16ddd\LL	.	.	.	.	.	.	.	.	4r	.	4r	.
.	.	16dd\	.	16dd\	.	.	.	.	.	.	.	.	.	.	.	.
8B\J	.	16dd\	.	16ddd\	.	.	.	.	.	.	.	.	.	.	.	.
.	.	16dd\JJ	.	16dd\JJ	.	.	.	.	.	.	.	.	.	.	.	.
!	!	!LO:TX:t=P:problem=mixed beam	!	!LO:LB:g=original	!	!	!	!	!	!	!	!	!	!	!	!
8A\L	.	16dLL/	.	16cccn\LL	.	.	.	.	.	.	.	.	2r	.	2r	.
.	.	16dd\	.	16dd\	.	.	.	.	.	.	.	.	.	.	.	.
8A\	.	16d/	.	16ccc\	.	.	.	.	.	.	.	.	.	.	.	.
.	.	16dd\	.	16dd\JJ	.	.	.	.	.	.	.	.	.	.	.	.
8F#\	.	16d/	.	16aaLL 16dd\	.	.	.	.	.	.	.	.	.	.	.	.
.	.	16dd\	.	16aa 16dd\	.	.	.	.	.	.	.	.	.	.	.	.
8F#\J	.	16d/	.	16aa 16dd\	.	.	.	.	.	.	.	.	.	.	.	.
.	.	16ddJJ\	.	16aaJJ 16dd\	.	.	.	.	.	.	.	.	.	.	.	.
=12	=12	=12	=12	=12	=12	=12	=12	=12	=12	=12	=12	=12	=12	=12	=12	=12
*tremolo	*	*	*	*tremolo	*	*	*	*	*	*	*	*	*	*	*	*
8G\L	.	16dd#X\LL	.	16bb\LL	.	.	.	.	.	.	.	1ryy	1r	.	1r	.
.	.	16dd#\	.	16bb\	.	.	.	.	.	.	.	.	.	.	.	.
8G\	.	16dd#\	.	16bb\	.	.	.	.	.	.	.	.	.	.	.	.
.	.	16dd#\JJ	.	16bb\	.	.	.	.	.	.	.	.	.	.	.	.
8G\	.	16ee\LL	.	16bb\	.	.	.	.	.	.	.	.	.	.	.	.
.	.	16ee\	.	16bb\	.	.	.	.	.	.	.	.	.	.	.	.
8G\J	.	16ee\	.	16bb\	.	.	.	.	.	.	.	.	.	.	.	.
.	.	16ee\JJ	.	16bb\JJ	.	.	.	.	.	.	.	.	.	.	.	.
8G\L	.	16ff#\LL	.	16bb\LL	.	.	.	.	.	.	.	.	.	.	.	.
.	.	16ff#\	.	16bb\	.	.	.	.	.	.	.	.	.	.	.	.
8G\	.	16ff#\	.	16bb\	.	.	.	.	.	.	.	.	.	.	.	.
.	.	16ff#\JJ	.	16bb\	.	.	.	.	.	.	.	.	.	.	.	.
8G\	.	16gg\LL	.	16bb\	.	.	.	.	.	.	.	.	.	.	.	.
.	.	16gg\	.	16bb\	.	.	.	.	.	.	.	.	.	.	.	.
8G\J	.	16gg\	.	16bb\	.	.	.	.	.	.	.	.	.	.	.	.
.	.	16gg\JJ	.	16bb\JJ	.	.	.	.	.	.	.	.	.	.	.	.
!LO:LB:g=original	!	!	!	!	!	!	!	!	!	!	!	!	!	!	!	!
=13	=13	=13	=13	=13	=13	=13	=13	=13	=13	=13	=13	=13	=13	=13	=13	=13
*	*	*	*	*	*	*	*	*	*	*	*	*	*2\right	*	*2\right	*
8A\L	.	16ff#\LL	.	16aa\LL	.	00r	.	00r	.	00r	.	1ryy	2d\	.	2f#\	.
.	.	16ff#\	.	16aa\	.	.	.	.	.	.	.	.	.	.	.	.
8A\	.	16ff#\	.	16aa\	.	.	.	.	.	.	.	.	.	.	.	.
.	.	16ff#\JJ	.	16aa\JJ	.	.	.	.	.	.	.	.	.	.	.	.
8A\	.	16ee\LL	.	16gg\LL	.	.	.	.	.	.	.	.	.	.	.	.
.	.	16ee\	.	16gg\	.	.	.	.	.	.	.	.	.	.	.	.
8A\J	.	16ee\	.	16gg\	.	.	.	.	.	.	.	.	.	.	.	.
.	.	16ee\JJ	.	16gg\JJ	.	.	.	.	.	.	.	.	.	.	.	.
8AA/L	.	16dd\LL	.	16ff#\LL	.	.	.	.	.	.	.	.	2A\	.	2e\	.
.	.	16dd\	.	16ff#\	.	.	.	.	.	.	.	.	.	.	.	.
8AA/	.	16dd\	.	16ff#\	.	.	.	.	.	.	.	.	.	.	.	.
.	.	16dd\JJ	.	16ff#\JJ	.	.	.	.	.	.	.	.	.	.	.	.
8AA/	.	16cc#\LL	.	16ee\LL	.	.	.	.	.	.	.	.	.	.	.	.
.	.	16cc#\	.	16ee\	.	.	.	.	.	.	.	.	.	.	.	.
8AA/J	.	16cc#\	.	16ee\	.	.	.	.	.	.	.	.	.	.	.	.
.	.	16cc#\JJ	.	16ee\JJ	.	.	.	.	.	.	.	.	.	.	.	.
*Xtremolo	*	*Xtremolo	*	*Xtremolo	*	*	*	*	*	*	*	*	*	*	*	*
=14	=14	=14	=14	=14	=14	=14	=14	=14	=14	=14	=14	=14	=14	=14	=14	=14
4D\	.	4f#/	.	4aa\	p	.	.	.	.	.	.	1ryy	4F#/	.	4d\	.
*	*	*tremolo	*	*	*	*	*	*	*	*	*	*	*	*	*	*
!	!	!LO:TX:t=P:problem=mixed beam	!	!	!	!	!	!	!	!	!	!	!	!	!	!
8B\L	p	16dLL/	p	16ddd\LL	.	.	.	.	.	.	.	.	4r	.	4r	.
.	.	16dd\	.	16dd\	.	.	.	.	.	.	.	.	.	.	.	.
8B\J	.	16d/	.	16ddd\	.	.	.	.	.	.	.	.	.	.	.	.
.	.	16ddJJ\	.	16dd\JJ	.	.	.	.	.	.	.	.	.	.	.	.
!	!	!LO:TX:t=P:problem=mixed beam	!	!	!	!	!	!	!	!	!	!	!	!	!	!
8A\L	.	16dLL/	.	16ccc#\LL	.	.	.	.	.	.	.	.	2r	.	2r	.
.	.	16dd\	.	16dd\	.	.	.	.	.	.	.	.	.	.	.	.
8A\	.	16d/	.	16ccc#\	.	.	.	.	.	.	.	.	.	.	.	.
.	.	16dd\	.	16dd\JJ	.	.	.	.	.	.	.	.	.	.	.	.
8G\	.	16d/	.	16bb\LL	.	.	.	.	.	.	.	.	.	.	.	.
.	.	16dd\	.	16dd\	.	.	.	.	.	.	.	.	.	.	.	.
8G\J	.	16d/	.	16bb\	.	.	.	.	.	.	.	.	.	.	.	.
.	.	16ddJJ\	.	16dd\JJ	.	.	.	.	.	.	.	.	.	.	.	.
*	*	*Xtremolo	*	*	*	*	*	*	*	*	*	*	*	*	*	*
=15	=15	=15	=15	=15	=15	=15	=15	=15	=15	=15	=15	=15	=15	=15	=15	=15
!	!	!	!	!	!	!	!	!	!	!	!	!	!	!	!	!LO:DY:rj
4F#\	.	4dd\	.	4aa\	.	.	.	.	.	.	.	1ryy	4D/	.	4d\	p
*	*	*tremolo	*	*	*	*	*	*	*	*	*	*	*	*	*	*
!	!	!LO:TX:t=P:problem=mixed beam	!	!	!	!	!	!	!	!	!	!	!	!	!	!
8B\L	.	16dLL/	.	16ddd\LL	.	.	.	.	.	.	.	.	4r	.	4r	.
.	.	16dd\	.	16dd\	.	.	.	.	.	.	.	.	.	.	.	.
8B\J	.	16d/	.	16ddd\	.	.	.	.	.	.	.	.	.	.	.	.
.	.	16ddJJ\	.	16dd\JJ	.	.	.	.	.	.	.	.	.	.	.	.
!	!	!LO:TX:t=P:problem=mixed beam	!	!	!	!	!	!	!	!	!	!	!	!	!	!
8A\L	.	16dLL/	.	16ccc#\LL	.	.	.	.	.	.	.	.	2r	.	2r	.
.	.	16dd\	.	16dd\	.	.	.	.	.	.	.	.	.	.	.	.
8A\	.	16d/	.	16ccc#\	.	.	.	.	.	.	.	.	.	.	.	.
.	.	16dd\	.	16dd\JJ	.	.	.	.	.	.	.	.	.	.	.	.
8G\	.	16d/	.	16bb\LL	.	.	.	.	.	.	.	.	.	.	.	.
.	.	16dd\	.	16dd\	.	.	.	.	.	.	.	.	.	.	.	.
8G\J	.	16d/	.	16bb\	.	.	.	.	.	.	.	.	.	.	.	.
.	.	16ddJJ\	.	16dd\JJ	.	.	.	.	.	.	.	.	.	.	.	.
*	*	*Xtremolo	*	*	*	*	*	*	*	*	*	*	*	*	*	*
!	!	!LO:LB:g=original	!	!	!	!	!	!	!	!	!	!	!LO:LB:g=original	!	!	!
=16	=16	=16	=16	=16	=16	=16	=16	=16	=16	=16	=16	=16	=16	=16	=16	=16
4F#\	.	4d/	.	4aa\	.	.	.	.	.	.	.	1ryy	4D/	.	4d\	.
*	*	*tremolo	*	*	*	*	*	*	*	*	*	*	*	*	*	*
!	!	!LO:TX:t=P:problem=mixed beam	!	!	!	!	!	!	!	!	!	!	!	!	!	!
8B\L	.	16dLL/	.	16ddd\LL	.	.	.	.	.	.	.	.	4r	.	4r	.
.	.	16dd\	.	16dd\	.	.	.	.	.	.	.	.	.	.	.	.
8B\J	.	16d/	.	16ddd\	.	.	.	.	.	.	.	.	.	.	.	.
.	.	16ddJJ\	.	16dd\JJ	.	.	.	.	.	.	.	.	.	.	.	.
!	!	!LO:TX:t=P:problem=mixed beam	!	!LO:LB:g=original	!	!	!	!	!	!	!	!	!	!	!	!
8A\L	.	16dLL/	.	16cccn\LL	.	.	.	.	.	.	.	.	2r	.	2r	.
.	.	16dd\	.	16dd\	.	.	.	.	.	.	.	.	.	.	.	.
8A\	.	16d/	.	16ccc\	.	.	.	.	.	.	.	.	.	.	.	.
.	.	16dd\	.	16dd\JJ	.	.	.	.	.	.	.	.	.	.	.	.
8F#\	.	16d/	.	16aa\LL	.	.	.	.	.	.	.	.	.	.	.	.
.	.	16dd\	.	16dd\	.	.	.	.	.	.	.	.	.	.	.	.
8F#\J	.	16d/	.	16aa\	.	.	.	.	.	.	.	.	.	.	.	.
.	.	16ddJJ\	.	16dd\JJ	.	.	.	.	.	.	.	.	.	.	.	.
=17	=17	=17	=17	=17	=17	=17	=17	=17	=17	=17	=17	=17	=17	=17	=17	=17
*tremolo	*	*	*	*tremolo	*	*	*	*	*	*	*	*	*	*	*	*
!	!LO:DY:t=f&colon;	!	!LO:DY:t=f&colon;	!	!	!	!	!	!	!	!	!	!	!	!	!
8G\L	f	16dd#\LL	f	16bb\LL	ff	00r	.	0r	.	0r	.	1ryy	1r	.	1r	.
.	.	16dd#\	.	16bb\	.	.	.	.	.	.	.	.	.	.	.	.
8G\	.	16dd#\	.	16bb\	.	.	.	.	.	.	.	.	.	.	.	.
.	.	16dd#\JJ	.	16bb\	.	.	.	.	.	.	.	.	.	.	.	.
8G\	.	16ee\LL	.	16bb\	.	.	.	.	.	.	.	.	.	.	.	.
.	.	16ee\	.	16bb\	.	.	.	.	.	.	.	.	.	.	.	.
8G\J	.	16ee\	.	16bb\	.	.	.	.	.	.	.	.	.	.	.	.
.	.	16ee\JJ	.	16bb\JJ	.	.	.	.	.	.	.	.	.	.	.	.
8G\L	.	16ff#\LL	.	16bb\LL	.	.	.	.	.	.	.	.	.	.	.	.
.	.	16ff#\	.	16bb\	.	.	.	.	.	.	.	.	.	.	.	.
8G\	.	16ff#\	.	16bb\	.	.	.	.	.	.	.	.	.	.	.	.
.	.	16ff#\JJ	.	16bb\	.	.	.	.	.	.	.	.	.	.	.	.
8G\	.	16gg\LL	.	16bb\	.	.	.	.	.	.	.	.	.	.	.	.
.	.	16gg\	.	16bb\	.	.	.	.	.	.	.	.	.	.	.	.
8G\J	.	16gg\	.	16bb\	.	.	.	.	.	.	.	.	.	.	.	.
.	.	16gg\JJ	.	16bb\JJ	.	.	.	.	.	.	.	.	.	.	.	.
=18	=18	=18	=18	=18	=18	=18	=18	=18	=18	=18	=18	=18	=18	=18	=18	=18
8A\L	.	16ff#\LL	.	16aa\LL	.	.	.	.	.	.	.	1ryy	2d\	.	2f#\	.
.	.	16ff#\	.	16aa\	.	.	.	.	.	.	.	.	.	.	.	.
8A\	.	16ff#\	.	16aa\	.	.	.	.	.	.	.	.	.	.	.	.
.	.	16ff#\JJ	.	16aa\JJ	.	.	.	.	.	.	.	.	.	.	.	.
8A\	.	16ee\LL	.	16gg\LL	.	.	.	.	.	.	.	.	.	.	.	.
.	.	16ee\	.	16gg\	.	.	.	.	.	.	.	.	.	.	.	.
8A\J	.	16ee\	.	16gg\	.	.	.	.	.	.	.	.	.	.	.	.
.	.	16ee\JJ	.	16gg\JJ	.	.	.	.	.	.	.	.	.	.	.	.
8AA/L	.	16dd\LL	.	16ff#\LL	.	.	.	.	.	.	.	.	2A\	.	2e\	.
.	.	16dd\	.	16ff#\	.	.	.	.	.	.	.	.	.	.	.	.
8AA/	.	16dd\	.	16ff#\	.	.	.	.	.	.	.	.	.	.	.	.
.	.	16dd\JJ	.	16ff#\JJ	.	.	.	.	.	.	.	.	.	.	.	.
8AA/	.	16cc#\LL	.	16ee\LL	.	.	.	.	.	.	.	.	.	.	.	.
.	.	16cc#\	.	16ee\	.	.	.	.	.	.	.	.	.	.	.	.
8AA/J	.	16cc#\	.	16ee\	.	.	.	.	.	.	.	.	.	.	.	.
.	.	16cc#\JJ	.	16ee\JJ	.	.	.	.	.	.	.	.	.	.	.	.
*Xtremolo	*	*Xtremolo	*	*Xtremolo	*	*	*	*	*	*	*	*	*	*	*	*
!LO:LB:g=original	!	!	!	!	!	!	!	!	!	!	!	!	!	!	!	!
=19	=19	=19	=19	=19	=19	=19	=19	=19	=19	=19	=19	=19	=19	=19	=19	=19
!LO:TX:t=P:problem=zbędna pauza w S1, S2	!	!LO:TX:t=P:problem=zbędna pauza w S1, S2	!	!LO:TX:t=P:problem=zbędna pauza w S1, S2	!	!LO:TX:t=P:problem=zbędna pauza w S1, S2	!	!LO:TX:t=P:problem=zbędna pauza	!	!LO:TX:t=P:problem=zbędna pauza	!	!	!LO:TX:t=P:problem=zbędna pauza w S1, S2	!	!LO:TX:t=P:problem=zbędna pauza w S1, S2	!
1ryy	.	1ryy	.	1ryy	.	.	.	1r	.	1r	.	1ryy	1ryy	.	1ryy	.
=20	=20	=20	=20	=20	=20	=20	=20	=20	=20	=20	=20	=20	=20	=20	=20	=20
8D\L	.	8ddL 8f#/	.	8dd/L	.	.	.	2r	.	2r	.	1ryy	4D/	.	4d\	.
16D\L	.	16ddL 16f#/	.	16ff#L 16a 16d/	.	.	.	.	.	.	.	.	.	.	.	.
16D\JJ	.	16ddJJ 16f#/	.	16ff#JJ 16a 16d/	.	.	.	.	.	.	.	.	.	.	.	.
8D\L	.	8ddL 8f#/	.	8ff#L 8a 8d/	.	.	.	.	.	.	.	.	8F#/L	.	8d\L	.
8D\J	.	8ddJ 8f#/	.	8ff#J 8a 8d/	.	.	.	.	.	.	.	.	8A/J	.	8d\J	.
4D\	.	4dd 4f#/	.	4ff# 4a 4d/	.	.	.	4r	.	4r	.	.	4D/	.	4d\	.
4r	.	4r	.	8r	.	.	.	8r	.	8r	.	.	4r	.	4r	.
.	.	.	.	8a\	.	.	.	8a\	Er-	8a\	er-	.	.	.	.	.
!	!	!	!	!	!	!	!	!	!	!	!	!	!	!	!LO:LB:g=original	!
=21	=21	=21	=21	=21	=21	=21	=21	=21	=21	=21	=21	=21	=21	=21	=21	=21
*tremolo	*	*	*	*	*	*	*	*	*	*	*	*	*	*	*	*
!	!	!	!	!	!	!	!	!	!	!	!	!	!	!	!LO:TX:a:t=4	!
8D\L	.	4f#/	p	4dd\	.	00r	.	4f#\	-go	4dd\	-go	1ryy	00r	.	00r	.
8D\	.	.	.	.	.	.	.	.	.	.	.	.	.	.	.	.
8D\	.	8f#/L	.	8dd\L	.	.	.	8f#\	si-	8dd\	si-	.	.	.	.	.
8D\J	.	8f#/J	.	8dd\J	.	.	.	8f#\	-ne	8dd\	-ne	.	.	.	.	.
8D\L	.	4f#/	.	4dd\	.	.	.	4f#\	fi-	4dd\	fi-	.	.	.	.	.
8D\	.	.	.	.	.	.	.	.	.	.	.	.	.	.	.	.
8D\	.	4f#/	.	4dd\	.	.	.	4f#\	-ne	4dd\	-ne	.	.	.	.	.
8D\J	.	.	.	.	.	.	.	.	.	.	.	.	.	.	.	.
=22	=22	=22	=22	=22	=22	=22	=22	=22	=22	=22	=22	=22	=22	=22	=22	=22
8E\L	.	4f#/	.	4dd\	.	.	.	4f#\	can-	4dd\	can-	1ryy	.	.	.	.
8E\	.	.	.	.	.	.	.	.	.	.	.	.	.	.	.	.
8E\	.	4g/	.	4cc#\	.	.	.	4g\	-te-	4cc#\	-te-	.	.	.	.	.
8E\J	.	.	.	.	.	.	.	.	.	.	.	.	.	.	.	.
8E\L	.	4g/	.	4cc#\	.	.	.	4g\	-mus	4cc#\	-mus	.	.	.	.	.
8E\	.	.	.	.	.	.	.	.	.	.	.	.	.	.	.	.
8E\	.	4r	.	8r	.	.	.	8a\	si-	8a\	si-	.	.	.	.	.
8E\J	.	.	.	8a\	.	.	.	8a\	-ne	8a\	-ne	.	.	.	.	.
=23	=23	=23	=23	=23	=23	=23	=23	=23	=23	=23	=23	=23	=23	=23	=23	=23
8AA/L	.	4e/	.	4gg\	.	.	.	4a\	fi-	4gg\	fi-	1ryy	.	.	.	.
8AA/	.	.	.	.	.	.	.	.	.	.	.	.	.	.	.	.
8AA/	.	8e/L	.	8gg\L	.	.	.	8a\	-ne	8gg\	-ne	.	.	.	.	.
8AA/J	.	8e/J	.	8gg\J	.	.	.	8a\	.	8gg\	.	.	.	.	.	.
!	!	!	!	!LO:LB:g=original	!	!	!	!LO:LB:g=original	!	!LO:LB:g=original	!	!	!	!	!	!
8AA/L	.	4e/	.	4gg\	.	.	.	4a\	can-	4gg\	can-	.	.	.	.	.
8AA/	.	.	.	.	.	.	.	.	.	.	.	.	.	.	.	.
8AA/	.	4e/	.	4gg\	.	.	.	4a\	.	4gg\	.	.	.	.	.	.
8AA/J	.	.	.	.	.	.	.	.	.	.	.	.	.	.	.	.
!	!	!LO:LB:g=original	!	!	!	!	!	!	!	!	!	!	!	!	!	!
=24	=24	=24	=24	=24	=24	=24	=24	=24	=24	=24	=24	=24	=24	=24	=24	=24
8D\L	.	4e/	.	4gg\	.	.	.	4a\	-te-	4gg\	-te-	1ryy	.	.	.	.
8D\	.	.	.	.	.	.	.	.	.	.	.	.	.	.	.	.
8D\	.	4d/	.	4ff#\	.	.	.	4dd\	-mus	4ff#\	-mus	.	.	.	.	.
8D\J	.	.	.	.	.	.	.	.	.	.	.	.	.	.	.	.
8D\L	.	4d/	.	4ff#\	.	.	.	2r	.	4ff#\	.	.	.	.	.	.
8D\	.	.	.	.	.	.	.	.	.	.	.	.	.	.	.	.
8D\	.	4r	.	8ff#\L	.	.	.	.	.	8ff#\	ne-	.	.	.	.	.
8D\J	.	.	.	8dd\J	.	.	.	.	.	8dd\	-o	.	.	.	.	.
*Xtremolo	*	*	*	*	*	*	*	*	*	*	*	*	*	*	*	*
=25	=25	=25	=25	=25	=25	=25	=25	=25	=25	=25	=25	=25	=25	=25	=25	=25
*	*	*	*	*tremolo	*	*	*	*	*	*	*	*	*	*	*	*
!	!	!	!LO:DY:t=mezo:rj	!LO:TX:t=P:problem=mixed beam	!LO:DY:t=mezi	!	!	!	!	!	!	!	!	!LO:DY:rj	!	!
4D\|	.	4f# 4A/	mf	16aLL/	mf	0r	.	00r	.	4aa\	na-	1ryy	1d	p	1f#	p
.	.	.	.	16aa\	.	.	.	.	.	.	.	.	.	.	.	.
.	.	.	.	16a/	.	.	.	.	.	.	.	.	.	.	.	.
.	.	.	.	16aa\	.	.	.	.	.	.	.	.	.	.	.	.
4F#\|	.	4r	.	16a/	.	.	.	.	.	8aa\	-to	.	.	.	.	.
.	.	.	.	16aa\	.	.	.	.	.	.	.	.	.	.	.	.
.	.	.	.	16a/	.	.	.	.	.	8aa\	.	.	.	.	.	.
.	.	.	.	16aaJJ\	.	.	.	.	.	.	.	.	.	.	.	.
!	!	!	!	!LO:TX:t=P:problem=mixed beam	!	!	!	!	!	!	!	!	!	!	!	!
4A\|	.	4r	.	16aLL/	.	.	.	.	.	4aa\	Sal-	.	.	.	.	.
.	.	.	.	16aa\	.	.	.	.	.	.	.	.	.	.	.	.
.	.	.	.	16a/	.	.	.	.	.	.	.	.	.	.	.	.
.	.	.	.	16aa\	.	.	.	.	.	.	.	.	.	.	.	.
4d\|	.	4f# 4A/	.	16a/	.	.	.	.	.	4aa\	-va-	.	.	.	.	.
.	.	.	.	16aa\	.	.	.	.	.	.	.	.	.	.	.	.
.	.	.	.	16a/	.	.	.	.	.	.	.	.	.	.	.	.
.	.	.	.	16aaJJ\	.	.	.	.	.	.	.	.	.	.	.	.
=26	=26	=26	=26	=26	=26	=26	=26	=26	=26	=26	=26	=26	=26	=26	=26	=26
*	*	*^	*	*	*	*	*	*	*	*	*	*	*	*	*	*
!	!	!	!	!	!LO:TX:t=P:problem=mixed beam	!	!	!	!	!	!	!	!	!	!	!	!
(4c#\	.	8g/	1A	.	16aLL/	.	.	.	.	.	4aa\	-to-	1ryy	1A	.	1e	.
.	.	.	.	.	16aa\	.	.	.	.	.	.	.	.	.	.	.	.
.	.	4g/	.	.	16a/	.	.	.	.	.	.	.	.	.	.	.	.
.	.	.	.	.	16aa\	.	.	.	.	.	.	.	.	.	.	.	.
4e\)	.	.	.	.	16a/	.	.	.	.	.	4aa\	-ri	.	.	.	.	.
.	.	.	.	.	16aa\	.	.	.	.	.	.	.	.	.	.	.	.
.	.	4g/	.	.	16a/	.	.	.	.	.	.	.	.	.	.	.	.
.	.	.	.	.	16aaJJ\	.	.	.	.	.	.	.	.	.	.	.	.
!	!	!	!	!	!LO:TX:t=P:problem=mixed beam	!	!	!	!	!	!	!	!	!	!	!	!
(4A\	.	.	.	.	16aLL/	.	.	.	.	.	4r	.	.	.	.	.	.
.	.	.	.	.	16aa\	.	.	.	.	.	.	.	.	.	.	.	.
.	.	4g/	.	.	16a/	.	.	.	.	.	.	.	.	.	.	.	.
.	.	.	.	.	16aa\	.	.	.	.	.	.	.	.	.	.	.	.
4c#\)	.	.	.	.	16a/	.	.	.	.	.	8aa\	er-	.	.	.	.	.
.	.	.	.	.	16aa\	.	.	.	.	.	.	.	.	.	.	.	.
.	.	8g/	.	.	16a/	.	.	.	.	.	8aa\	-go	.	.	.	.	.
.	.	.	.	.	16aaJJ\	.	.	.	.	.	.	.	.	.	.	.	.
*	*	*v	*v	*	*	*	*	*	*	*	*	*	*	*	*	*	*
!LO:LB:g=original	!	!	!	!	!	!	!	!	!	!	!	!	!	!	!	!
=27	=27	=27	=27	=27	=27	=27	=27	=27	=27	=27	=27	=27	=27	=27	=27	=27
!	!	!	!	!LO:TX:t=P:problem=mixed beam	!	!LO:TX:t=P:problem=brak pauzy 1r	!	!	!	!	!	!	!	!	!	!
4d\	.	4f# 4A/	.	16aLL/	.	1ryy	.	.	.	4aa\	si-	1ryy	1d	.	1f#	.
.	.	.	.	16aa\	.	.	.	.	.	.	.	.	.	.	.	.
.	.	.	.	16a/	.	.	.	.	.	.	.	.	.	.	.	.
.	.	.	.	16aa\	.	.	.	.	.	.	.	.	.	.	.	.
4D\	.	4r	.	16a/	.	.	.	.	.	4aa\	-ne	.	.	.	.	.
.	.	.	.	16aa\	.	.	.	.	.	.	.	.	.	.	.	.
.	.	.	.	16a/	.	.	.	.	.	.	.	.	.	.	.	.
.	.	.	.	16aaJJ\	.	.	.	.	.	.	.	.	.	.	.	.
!	!	!	!	!LO:TX:t=P:problem=mixed beam	!	!	!	!	!	!	!	!	!	!	!	!
4F#\	.	4r	.	16aLL/	.	.	.	.	.	4aa\	fi-	.	.	.	.	.
.	.	.	.	16aa\	.	.	.	.	.	.	.	.	.	.	.	.
.	.	.	.	16a/	.	.	.	.	.	.	.	.	.	.	.	.
.	.	.	.	16aa\	.	.	.	.	.	.	.	.	.	.	.	.
4A\	.	4f# 4A/	.	16a/	.	.	.	.	.	4aa\	-ne	.	.	.	.	.
.	.	.	.	16aa\	.	.	.	.	.	.	.	.	.	.	.	.
.	.	.	.	16a/	.	.	.	.	.	.	.	.	.	.	.	.
.	.	.	.	16aaJJ\	.	.	.	.	.	.	.	.	.	.	.	.
=28	=28	=28	=28	=28	=28	=28	=28	=28	=28	=28	=28	=28	=28	=28	=28	=28
*	*	*^	*	*	*	*	*	*	*	*	*	*	*	*	*	*
*	*	*	*	*	*	*	*	*	*	*	*	*ij	*	*	*	*	*
!	!	!	!	!	!LO:TX:t=P:problem=mixed beam	!	!LO:TX:t=P:problem=uzupełniona nadprogramowa pauza w S1, S2 w takcie nr 19	!	!	!	!	!	!	!	!	!	!
(4c#\	.	8g/	1A	.	16aLL/	.	1ryy	.	.	.	4aa\	fi-	1ryy	1A	.	1e	.
.	.	.	.	.	16aa\	.	.	.	.	.	.	.	.	.	.	.	.
.	.	4g/	.	.	16a/	.	.	.	.	.	.	.	.	.	.	.	.
.	.	.	.	.	16aa\	.	.	.	.	.	.	.	.	.	.	.	.
4e\)	.	.	.	.	16a/	.	.	.	.	.	4aa\	-ne	.	.	.	.	.
*	*	*	*	*	*	*	*	*	*	*	*	*Xij	*	*	*	*	*
.	.	.	.	.	16aa\	.	.	.	.	.	.	.	.	.	.	.	.
.	.	4g/	.	.	16a/	.	.	.	.	.	.	.	.	.	.	.	.
.	.	.	.	.	16aaJJ\	.	.	.	.	.	.	.	.	.	.	.	.
!	!	!	!	!	!LO:TX:t=P:problem=mixed beam	!	!	!	!	!	!	!	!	!	!	!	!
(4A\	.	.	.	.	16aLL/	.	.	.	.	.	2r	.	.	.	.	.	.
.	.	.	.	.	16aa\	.	.	.	.	.	.	.	.	.	.	.	.
.	.	4g/	.	.	16a/	.	.	.	.	.	.	.	.	.	.	.	.
.	.	.	.	.	16aa\	.	.	.	.	.	.	.	.	.	.	.	.
4c#\)	.	.	.	.	16a/	.	.	.	.	.	.	.	.	.	.	.	.
.	.	.	.	.	16aa\	.	.	.	.	.	.	.	.	.	.	.	.
.	.	8g/	.	.	16a/	.	.	.	.	.	.	.	.	.	.	.	.
.	.	.	.	.	16aaJJ\	.	.	.	.	.	.	.	.	.	.	.	.
*	*	*v	*v	*	*	*	*	*	*	*	*	*	*	*	*	*	*
!	!	!	!	!	!	!	!	!	!	!LO:LB:g=original	!	!	!	!	!	!
=29	=29	=29	=29	=29	=29	=29	=29	=29	=29	=29	=29	=29	=29	=29	=29	=29
*	*	*	*	*	*	*2\right	*	*2\right	*	*2\right	*	*	*	*	*	*
!LO:TX:t=P:problem=mixed beam	!	!LO:TX:t=P:problem=mixed beam	!	!	!	!	!	!	!	!	!	!	!	!LO:DY:t=f&colon;	!	!
8d\L	.	16f#/LL	f	16ff#\LL	f	2.D\	Er-	2.dd\	Ne-	2ff#\	ne-	1ryy	1d	f	1f#	.
.	.	16dd\	.	16ff#\	.	.	.	.	.	.	.	.	.	.	.	.
8D/	.	16cc#\	.	16ff#\	.	.	.	.	.	.	.	.	.	.	.	.
.	.	16dd\JJ	.	16ff#\	.	.	.	.	.	.	.	.	.	.	.	.
*	*	*tremolo	*	*	*	*	*	*	*	*	*	*	*	*	*	*
8D/	.	16dd\LL	.	16ff#\	.	.	.	.	.	.	.	.	.	.	.	.
.	.	16dd\	.	16ff#\	.	.	.	.	.	.	.	.	.	.	.	.
8D/J	.	16dd\	.	16ff#\	.	.	.	.	.	.	.	.	.	.	.	.
.	.	16dd\JJ	.	16ff#\JJ	.	.	.	.	.	.	.	.	.	.	.	.
*tremolo	*	*	*	*	*	*	*	*	*	*	*	*	*	*	*	*
8D\L	.	16dd\LL	.	16ff#\LL	.	.	.	.	.	2ff#\	-o	.	.	.	.	.
.	.	16dd\	.	16ff#\	.	.	.	.	.	.	.	.	.	.	.	.
8D\	.	16dd\	.	16ff#\	.	.	.	.	.	.	.	.	.	.	.	.
.	.	16dd\	.	16ff#\	.	.	.	.	.	.	.	.	.	.	.	.
8D\	.	16dd\	.	16ff#\	.	4D\	-go	4dd\	-o	.	.	.	.	.	.	.
.	.	16dd\	.	16ff#\	.	.	.	.	.	.	.	.	.	.	.	.
8D\J	.	16dd\	.	16ff#\	.	.	.	.	.	.	.	.	.	.	.	.
.	.	16dd\JJ	.	16ff#\JJ	.	.	.	.	.	.	.	.	.	.	.	.
=30	=30	=30	=30	=30	=30	=30	=30	=30	=30	=30	=30	=30	=30	=30	=30	=30
8A\L	.	16cc#\LL	.	16ee\LL	.	2.A\	er-	2.cc#\	na-	2ee\	na-	1ryy	1A	.	1e	.
.	.	16cc#\	.	16ee\	.	.	.	.	.	.	.	.	.	.	.	.
8A\	.	16cc#\	.	16ee\	.	.	.	.	.	.	.	.	.	.	.	.
.	.	16cc#\	.	16ee\	.	.	.	.	.	.	.	.	.	.	.	.
8A\	.	16cc#\	.	16ee\	.	.	.	.	.	.	.	.	.	.	.	.
.	.	16cc#\	.	16ee\	.	.	.	.	.	.	.	.	.	.	.	.
8A\J	.	16cc#\	.	16ee\	.	.	.	.	.	.	.	.	.	.	.	.
.	.	16cc#\JJ	.	16ee\JJ	.	.	.	.	.	.	.	.	.	.	.	.
8A\L	.	16cc#\LL	.	16ee\LL	.	.	.	.	.	2ee\	-to	.	.	.	.	.
.	.	16cc#\	.	16ee\	.	.	.	.	.	.	.	.	.	.	.	.
8A\	.	16cc#\	.	16ee\	.	.	.	.	.	.	.	.	.	.	.	.
.	.	16cc#\	.	16ee\	.	.	.	.	.	.	.	.	.	.	.	.
8A\	.	16cc#\	.	16ee\	.	4A\	-go	4cc#\	-to	.	.	.	.	.	.	.
.	.	16cc#\	.	16ee\	.	.	.	.	.	.	.	.	.	.	.	.
8A\J	.	16cc#\	.	16ee\	.	.	.	.	.	.	.	.	.	.	.	.
.	.	16cc#\JJ	.	16ee\JJ	.	.	.	.	.	.	.	.	.	.	.	.
=31	=31	=31	=31	=31	=31	=31	=31	=31	=31	=31	=31	=31	=31	=31	=31	=31
8E\L	.	16g#X/LL	.	16dd\LL	.	2.E\	si-	2.b\	Sal-	2dd\	Sal-	1ryy	1e	.	1e	.
.	.	16g#/	.	16dd\	.	.	.	.	.	.	.	.	.	.	.	.
8E\	.	16g#/	.	16dd\	.	.	.	.	.	.	.	.	.	.	.	.
.	.	16g#/	.	16dd\	.	.	.	.	.	.	.	.	.	.	.	.
8E\	.	16g#/	.	16dd\	.	.	.	.	.	.	.	.	.	.	.	.
.	.	16g#/	.	16dd\	.	.	.	.	.	.	.	.	.	.	.	.
8E\J	.	16g#/	.	16dd\	.	.	.	.	.	.	.	.	.	.	.	.
.	.	16g#/JJ	.	16dd\JJ	.	.	.	.	.	.	.	.	.	.	.	.
8E\L	.	16g#/LL	.	16dd\LL	.	.	.	.	.	2dd\	-va-	.	.	.	.	.
.	.	16g#/	.	16dd\	.	.	.	.	.	.	.	.	.	.	.	.
8E\	.	16g#/	.	16dd\	.	.	.	.	.	.	.	.	.	.	.	.
.	.	16g#/	.	16dd\	.	.	.	.	.	.	.	.	.	.	.	.
8E\	.	16g#/	.	16dd\	.	4E\	-ne	4b\	-va-	.	.	.	.	.	.	.
.	.	16g#/	.	16dd\	.	.	.	.	.	.	.	.	.	.	.	.
8E\J	.	16g#/	.	16dd\	.	.	.	.	.	.	.	.	.	.	.	.
.	.	16g#/JJ	.	16dd\JJ	.	.	.	.	.	.	.	.	.	.	.	.
!	!	!LO:LB:g=original	!	!LO:LB:g=original	!	!	!	!	!	!	!	!	!LO:LB:g=original	!	!	!
=32	=32	=32	=32	=32	=32	=32	=32	=32	=32	=32	=32	=32	=32	=32	=32	=32
8AA/L	.	16a\LL	.	16cc#\LL	.	4AA/	fi-	4a\	-to-	4cc#\	-to-	1ryy	1A	.	1e	.
.	.	16a\	.	16cc#\	.	.	.	.	.	.	.	.	.	.	.	.
8AA/	.	16a\	.	16cc#\	.	.	.	.	.	.	.	.	.	.	.	.
.	.	16a\	.	16cc#\	.	.	.	.	.	.	.	.	.	.	.	.
8AA/	.	16a\	.	16cc#\	.	4AA/	-ne	4a\	-ri	4cc#\	-ri	.	.	.	.	.
.	.	16a\	.	16cc#\	.	.	.	.	.	.	.	.	.	.	.	.
8AA/J	.	16a\	.	16cc#\	.	.	.	.	.	.	.	.	.	.	.	.
.	.	16a\JJ	.	16cc#\JJ	.	.	.	.	.	.	.	.	.	.	.	.
8AA/L	.	16a\LL	.	16cc#\LL	.	2r	.	2r	.	2r	.	.	.	.	.	.
.	.	16a\	.	16cc#\	.	.	.	.	.	.	.	.	.	.	.	.
8AA/	.	16a\	.	16cc#\	.	.	.	.	.	.	.	.	.	.	.	.
.	.	16a\	.	16cc#\	.	.	.	.	.	.	.	.	.	.	.	.
8AA/	.	16a\	.	16cc#\	.	.	.	.	.	.	.	.	.	.	.	.
.	.	16a\	.	16cc#\	.	.	.	.	.	.	.	.	.	.	.	.
8AA/J	.	16a\	.	16cc#\	.	.	.	.	.	.	.	.	.	.	.	.
.	.	16a\JJ	.	16cc#\JJ	.	.	.	.	.	.	.	.	.	.	.	.
=33	=33	=33	=33	=33	=33	=33	=33	=33	=33	=33	=33	=33	=33	=33	=33	=33
8D\L	.	16dd\LL	.	16ff#\LL	.	2.D\	er-	2.dd\	ne-	2.ff#\	ne-	1ryy	1d	.	1f#	.
.	.	16dd\	.	16ff#\	.	.	.	.	.	.	.	.	.	.	.	.
8D\	.	16dd\	.	16ff#\	.	.	.	.	.	.	.	.	.	.	.	.
.	.	16dd\	.	16ff#\	.	.	.	.	.	.	.	.	.	.	.	.
8D\	.	16dd\	.	16ff#\	.	.	.	.	.	.	.	.	.	.	.	.
.	.	16dd\	.	16ff#\	.	.	.	.	.	.	.	.	.	.	.	.
8D\J	.	16dd\	.	16ff#\	.	.	.	.	.	.	.	.	.	.	.	.
.	.	16dd\JJ	.	16ff#\JJ	.	.	.	.	.	.	.	.	.	.	.	.
8D\L	.	16dd\LL	.	16ff#\LL	.	.	.	.	.	.	.	.	.	.	.	.
.	.	16dd\	.	16ff#\	.	.	.	.	.	.	.	.	.	.	.	.
8D\	.	16dd\	.	16ff#\	.	.	.	.	.	.	.	.	.	.	.	.
.	.	16dd\	.	16ff#\	.	.	.	.	.	.	.	.	.	.	.	.
8D\	.	16dd\	.	16ff#\	.	4D\	-go	4dd\	-o	4ff#\	-o	.	.	.	.	.
.	.	16dd\	.	16ff#\	.	.	.	.	.	.	.	.	.	.	.	.
8D\J	.	16dd\	.	16ff#\	.	.	.	.	.	.	.	.	.	.	.	.
.	.	16dd\JJ	.	16ff#\JJ	.	.	.	.	.	.	.	.	.	.	.	.
=34	=34	=34	=34	=34	=34	=34	=34	=34	=34	=34	=34	=34	=34	=34	=34	=34
*	*	*	*	*	*	*	*ij	*	*	*	*	*	*	*	*	*
8A\L	.	16cc#\LL	.	16ee\LL	.	2.A\	er-	2.cc#\	na-	2.ee\	na-	1ryy	1A	.	1e	.
.	.	16cc#\	.	16ee\	.	.	.	.	.	.	.	.	.	.	.	.
8A\	.	16cc#\	.	16ee\	.	.	.	.	.	.	.	.	.	.	.	.
.	.	16cc#\	.	16ee\	.	.	.	.	.	.	.	.	.	.	.	.
8A\	.	16cc#\	.	16ee\	.	.	.	.	.	.	.	.	.	.	.	.
.	.	16cc#\	.	16ee\	.	.	.	.	.	.	.	.	.	.	.	.
8A\J	.	16cc#\	.	16ee\	.	.	.	.	.	.	.	.	.	.	.	.
.	.	16cc#\JJ	.	16ee\JJ	.	.	.	.	.	.	.	.	.	.	.	.
8A\L	.	16cc#\LL	.	16ee\LL	.	.	.	.	.	.	.	.	.	.	.	.
.	.	16cc#\	.	16ee\	.	.	.	.	.	.	.	.	.	.	.	.
8A\	.	16cc#\	.	16ee\	.	.	.	.	.	.	.	.	.	.	.	.
.	.	16cc#\	.	16ee\	.	.	.	.	.	.	.	.	.	.	.	.
8A\	.	16cc#\	.	16ee\	.	4A\	-go	4cc#\	-to	4ee\	-to	.	.	.	.	.
*	*	*	*	*	*	*	*Xij	*	*	*	*	*	*	*	*	*
.	.	16cc#\	.	16ee\	.	.	.	.	.	.	.	.	.	.	.	.
8A\J	.	16cc#\	.	16ee\	.	.	.	.	.	.	.	.	.	.	.	.
.	.	16cc#\JJ	.	16ee\JJ	.	.	.	.	.	.	.	.	.	.	.	.
!	!	!	!	!	!	!LO:LB:g=original	!	!LO:LB:g=original	!	!	!	!	!	!	!	!
=35	=35	=35	=35	=35	=35	=35	=35	=35	=35	=35	=35	=35	=35	=35	=35	=35
8E\L	.	16g#X/LL	.	16dd\LL	.	2.E\	si-	2.b\	Sal-	2.dd\	Sal-	1ryy	1e	.	1e	.
.	.	16g#/	.	16dd\	.	.	.	.	.	.	.	.	.	.	.	.
8E\	.	16g#/	.	16dd\	.	.	.	.	.	.	.	.	.	.	.	.
.	.	16g#/	.	16dd\	.	.	.	.	.	.	.	.	.	.	.	.
8E\	.	16g#/	.	16dd\	.	.	.	.	.	.	.	.	.	.	.	.
.	.	16g#/	.	16dd\	.	.	.	.	.	.	.	.	.	.	.	.
8E\J	.	16g#/	.	16dd\	.	.	.	.	.	.	.	.	.	.	.	.
.	.	16g#/JJ	.	16dd\JJ	.	.	.	.	.	.	.	.	.	.	.	.
8E\L	.	16g#/LL	.	16dd\LL	.	.	.	.	.	.	.	.	.	.	.	.
.	.	16g#/	.	16dd\	.	.	.	.	.	.	.	.	.	.	.	.
8E\	.	16g#/	.	16dd\	.	.	.	.	.	.	.	.	.	.	.	.
.	.	16g#/	.	16dd\	.	.	.	.	.	.	.	.	.	.	.	.
8E\	.	16g#/	.	16dd\	.	4E\	-ne	4b\	-va-	4dd\	-va-	.	.	.	.	.
.	.	16g#/	.	16dd\	.	.	.	.	.	.	.	.	.	.	.	.
8E\J	.	16g#/	.	16dd\	.	.	.	.	.	.	.	.	.	.	.	.
.	.	16g#/JJ	.	16dd\JJ	.	.	.	.	.	.	.	.	.	.	.	.
*Xtremolo	*	*	*	*	*	*	*	*	*	*	*	*	*	*	*	*
!LO:PB:g=original	!	!	!	!	!	!	!	!	!	!	!	!	!	!	!	!
=36	=36	=36	=36	=36	=36	=36	=36	=36	=36	=36	=36	=36	=36	=36	=36	=36
4AA/	.	16a/LL	.	16cc#\LL	.	4AA/	fi-	4a\	-to-	4cc#\	-to-	1ryy	4A/	.	4e\	.
.	.	16a/	.	16cc#\	.	.	.	.	.	.	.	.	.	.	.	.
.	.	16a/	.	16cc#\	.	.	.	.	.	.	.	.	.	.	.	.
.	.	16a/	.	16cc#\	.	.	.	.	.	.	.	.	.	.	.	.
4A\	.	16a/	.	16cc#\	.	4AA/	-ne	4a\	-ri	4cc#\	-ri	.	4r	.	4r	.
.	.	16a/	.	16cc#\	.	.	.	.	.	.	.	.	.	.	.	.
.	.	16a/	.	16cc#\	.	.	.	.	.	.	.	.	.	.	.	.
.	.	16a/JJ	.	16cc#\JJ	.	.	.	.	.	.	.	.	.	.	.	.
2r	.	2r	.	2r	.	[4c#\	can-	4e/	al-	4a\	al-	.	2r	.	2r	.
.	.	.	.	.	.	4c#\]	.	4e/	-le-	4a\	-le-	.	.	.	.	.
!	!	!	!	!	!	!	!	!	!	!LO:LB:g=original	!	!	!	!	!	!
=37	=37	=37	=37	=37	=37	=37	=37	=37	=37	=37	=37	=37	=37	=37	=37	=37
1r	.	1r	.	1r	.	4d\	-te-	4f#/	-lu-	4b\	-lu-	1ryy	1r	.	1r	.
.	.	.	.	.	.	4c#\	.	4e/	-ja	4a\	-ja	.	.	.	.	.
.	.	.	.	.	.	4B\	.	4d/	al-	4g#X\	al-	.	.	.	.	.
.	.	.	.	.	.	4A\	.	4c#/	-le-	4a\	-le-	.	.	.	.	.
=38	=38	=38	=38	=38	=38	=38	=38	=38	=38	=38	=38	=38	=38	=38	=38	=38
2r	.	2r	.	2r	.	2G#X\	-mus	2e/	-lu-	2dd\	-lu-	1ryy	2r	.	2r	.
*tremolo	*	*	*	*	*	*	*	*	*	*	*	*	*	*	*	*
8D\L	.	16dd\LL	.	16ff#\LL	.	4D\	al-	4dd\	-ja	4ff#\	-ja	.	4d\	.	4f#\	.
.	.	16dd\	.	16ff#\	.	.	.	.	.	.	.	.	.	.	.	.
8D\	.	16dd\	.	16ff#\	.	.	.	.	.	.	.	.	.	.	.	.
.	.	16dd\	.	16ff#\	.	.	.	.	.	.	.	.	.	.	.	.
*	*	*	*	*	*	*	*	*	*ij	*	*ij	*	*	*	*	*
8D\	.	16dd\	.	16ff#\	.	4D\	-le-	4dd\	al-	4ff#\	al-	.	4d\	.	4f#\	.
.	.	16dd\	.	16ff#\	.	.	.	.	.	.	.	.	.	.	.	.
8D\J	.	16dd\	.	16ff#\	.	.	.	.	.	.	.	.	.	.	.	.
.	.	16dd\JJ	.	16ff#\JJ	.	.	.	.	.	.	.	.	.	.	.	.
!	!	!	!	!	!	!	!	!	!	!	!	!	!	!	!LO:LB:g=original	!
=39	=39	=39	=39	=39	=39	=39	=39	=39	=39	=39	=39	=39	=39	=39	=39	=39
8E\L	.	16cc#\LL	.	16ee\LL	.	4E\	-lu-	4cc#\	-le-	4ee\	-le-	1ryy	2e\	.	2e\	.
.	.	16cc#\	.	16ee\	.	.	.	.	.	.	.	.	.	.	.	.
8E\	.	16cc#\	.	16ee\	.	.	.	.	.	.	.	.	.	.	.	.
.	.	16cc#\JJ	.	16ee\JJ	.	.	.	.	.	.	.	.	.	.	.	.
8E\	.	16b\LL	.	16dd\LL	.	4E\	-ja	4b\	.	4dd\	.	.	.	.	.	.
.	.	16b\	.	16dd\	.	.	.	.	.	.	.	.	.	.	.	.
8E\J	.	16b\	.	16dd\	.	.	.	.	.	.	.	.	.	.	.	.
.	.	16b\JJ	.	16dd\JJ	.	.	.	.	.	.	.	.	.	.	.	.
8E\L	.	16a\LL	.	16cc#\LL	.	4E\	si-	4a\	-lu-	4cc#\	-lu-	.	4e\	.	4e\	.
.	.	16a\	.	16cc#\	.	.	.	.	.	.	.	.	.	.	.	.
8E\	.	16a\	.	16cc#\	.	.	.	.	.	.	.	.	.	.	.	.
.	.	16a\JJ	.	16cc#\JJ	.	.	.	.	.	.	.	.	.	.	.	.
8E\	.	16g#X\LL	.	16b\LL	.	4E\	-ne	4g#X\	.	4b\	.	.	4e\	.	4e\	.
.	.	16g#\	.	16b\	.	.	.	.	.	.	.	.	.	.	.	.
8E\J	.	16g#\	.	16b\	.	.	.	.	.	.	.	.	.	.	.	.
.	.	16g#\JJ	.	16b\JJ	.	.	.	.	.	.	.	.	.	.	.	.
*Xtremolo	*	*Xtremolo	*	*Xtremolo	*	*	*	*	*	*	*	*	*	*	*	*
!	!	!LO:LB:g=original	!	!	!	!	!	!	!	!	!	!	!	!	!	!
=40	=40	=40	=40	=40	=40	=40	=40	=40	=40	=40	=40	=40	=40	=40	=40	=40
!	!	!	!	!	!	!	!	!	!	!	!	!	!LO:N:vis=1	!	!	!
2AA/	.	2a/	.	2a\	.	2A\	fi-	2a\	-ja	2a\	-ja	1ryy	2A/	.	2e\	.
2r	.	2r	.	2r	.	4c#\	-ne	4e/	al-	4a\	al-	.	2r	.	2r	.
.	.	.	.	.	.	4c#\	can-	4e/	-le-	4a\	-le-	.	.	.	.	.
=41	=41	=41	=41	=41	=41	=41	=41	=41	=41	=41	=41	=41	=41	=41	=41	=41
1r	.	1r	.	1r	.	4d\	-te-	4f#/	-lu-	4b\	-lu-	1ryy	1r	.	1r	.
.	.	.	.	.	.	4c#\	.	4e/	-ja	4a\	-ja	.	.	.	.	.
.	.	.	.	.	.	4B\	.	4d/	al-	4g#X\	al-	.	.	.	.	.
.	.	.	.	.	.	4A\	.	4c#/	-le-	4a\	-le-	.	.	.	.	.
!	!	!	!	!LO:LB:g=original	!	!LO:LB:g=original	!	!LO:LB:g=original	!	!	!	!	!	!	!	!
=42	=42	=42	=42	=42	=42	=42	=42	=42	=42	=42	=42	=42	=42	=42	=42	=42
2r	.	2r	.	2r	.	2G#X\	-mus	2e/	-lu-	2dd\	-lu-	1ryy	2r	.	2r	.
*tremolo	*	*tremolo	*	*tremolo	*	*	*	*	*	*	*	*	*	*	*	*
8D\L	.	16dd\LL	.	16ff#\LL	.	4D\	al-	4dd\	-ja	4ff#\	-ja	.	4d\	.	4f#\	.
*	*	*	*	*	*	*	*	*	*Xij	*	*Xij	*	*	*	*	*
.	.	16dd\	.	16ff#\	.	.	.	.	.	.	.	.	.	.	.	.
8D\	.	16dd\	.	16ff#\	.	.	.	.	.	.	.	.	.	.	.	.
.	.	16dd\	.	16ff#\	.	.	.	.	.	.	.	.	.	.	.	.
8D\	.	16dd\	.	16ff#\	.	4D\	-le-	4dd\	al-	4ff#\	al-	.	4d\	.	4f#\	.
.	.	16dd\	.	16ff#\	.	.	.	.	.	.	.	.	.	.	.	.
8D\J	.	16dd\	.	16ff#\	.	.	.	.	.	.	.	.	.	.	.	.
.	.	16dd\JJ	.	16ff#\JJ	.	.	.	.	.	.	.	.	.	.	.	.
!	!	!	!	!	!	!	!	!	!	!LO:LB:g=original	!	!	!LO:LB:g=original	!	!	!
=43	=43	=43	=43	=43	=43	=43	=43	=43	=43	=43	=43	=43	=43	=43	=43	=43
8E\L	.	16cc#\LL	.	16ee\LL	.	4E\	-lu-	4cc#\	-le-	4ee\	-le-	1ryy	2e\	.	2e\	.
.	.	16cc#\	.	16ee\	.	.	.	.	.	.	.	.	.	.	.	.
8E\	.	16cc#\	.	16ee\	.	.	.	.	.	.	.	.	.	.	.	.
.	.	16cc#\JJ	.	16ee\JJ	.	.	.	.	.	.	.	.	.	.	.	.
8E\	.	16b\LL	.	16dd\LL	.	4E\	-ja	4b\	.	4dd\	.	.	.	.	.	.
.	.	16b\	.	16dd\	.	.	.	.	.	.	.	.	.	.	.	.
8E\J	.	16b\	.	16dd\	.	.	.	.	.	.	.	.	.	.	.	.
.	.	16b\JJ	.	16dd\JJ	.	.	.	.	.	.	.	.	.	.	.	.
*	*	*	*	*	*	*	*ij	*	*	*	*	*	*	*	*	*
8E\L	.	16a\LL	.	16cc#\LL	.	4E\	alle-	4a\	-lu-	4cc#\	-lu-	.	4e\	.	4e\	.
.	.	16a\	.	16cc#\	.	.	.	.	.	.	.	.	.	.	.	.
8E\	.	16a\	.	16cc#\	.	.	.	.	.	.	.	.	.	.	.	.
.	.	16a\JJ	.	16cc#\JJ	.	.	.	.	.	.	.	.	.	.	.	.
8E\	.	16g#X\LL	.	16b\LL	.	4E\	-lu-	4g#X\	.	4b\	.	.	4e\	.	4e\	.
.	.	16g#\	.	16b\	.	.	.	.	.	.	.	.	.	.	.	.
8E\J	.	16g#\	.	16b\	.	.	.	.	.	.	.	.	.	.	.	.
.	.	16g#\JJ	.	16b\JJ	.	.	.	.	.	.	.	.	.	.	.	.
*Xtremolo	*	*Xtremolo	*	*Xtremolo	*	*	*	*	*	*	*	*	*	*	*	*
=44	=44	=44	=44	=44	=44	=44	=44	=44	=44	=44	=44	=44	=44	=44	=44	=44
2AA/	.	8a\L	.	8cc#\L	.	2AA/	-ja	4a\	-ja	2a\	-ja	1ryy	2A/	.	2e\	.
*	*	*	*	*	*	*	*Xij	*	*	*	*	*	*	*	*	*
.	.	8cc#\J	.	8aa\J	.	.	.	.	.	.	.	.	.	.	.	.
.	.	4cc#\	.	4ee\	.	.	.	4r	.	.	.	.	.	.	.	.
4r	.	8cc#\L	.	8ee\L	.	2r	.	2r	.	2r	.	.	4r	.	4r	.
.	.	8a\	.	8cc#\	.	.	.	.	.	.	.	.	.	.	.	.
4E\	.	8b\	.	8dd\	.	.	.	.	.	.	.	.	4e\	.	4e\	.
.	.	8g#X\J	.	8b\J	.	.	.	.	.	.	.	.	.	.	.	.
=45	=45	=45	=45	=45	=45	=45	=45	=45	=45	=45	=45	=45	=45	=45	=45	=45
2A\	.	8a\L	.	8cc#\L	.	00r	.	00r	.	00r	.	1ryy	2A/	.	2e\	.
.	.	8cc#\J	.	8aa\J	.	.	.	.	.	.	.	.	.	.	.	.
.	.	4cc#\	.	4ee\	.	.	.	.	.	.	.	.	.	.	.	.
!	!	!LO:TX:t=P:problem=mixed beam	!	!	!	!	!	!	!	!	!	!	!	!	!	!
4r	.	8cc#\L	.	8cc#\L	.	.	.	.	.	.	.	.	4r	.	4r	.
.	.	8c#/	.	8a\	.	.	.	.	.	.	.	.	.	.	.	.
4E\	.	8d/	.	8b\	.	.	.	.	.	.	.	.	4e\	.	4e\	.
.	.	8B/J	.	8g#X\J	.	.	.	.	.	.	.	.	.	.	.	.
!LO:LB:g=original	!	!	!	!	!	!	!	!	!	!	!	!	!	!	!	!
=46	=46	=46	=46	=46	=46	=46	=46	=46	=46	=46	=46	=46	=46	=46	=46	=46
!	!	!LO:TX:t=P:problem=mixed beam	!	!LO:TX:t=P:problem=mixed beam	!	!	!	!	!	!	!	!	!	!	!	!
2AA/	.	8c#/L	.	8a/L	.	.	.	.	.	.	.	1ryy	2A/	.	2e\	.
.	.	8cc#\J	.	8aa\J	.	.	.	.	.	.	.	.	.	.	.	.
.	.	4cc#\	.	4ee\	.	.	.	.	.	.	.	.	.	.	.	.
4r	.	8cc#\L	.	8ee\L	.	.	.	.	.	.	.	.	4r	.	4r	.
.	.	8a\	.	8cc#\	.	.	.	.	.	.	.	.	.	.	.	.
4E\	.	8b\	.	8dd\	.	.	.	.	.	.	.	.	4e\	.	4e\	.
.	.	8g#X\J	.	8b\J	.	.	.	.	.	.	.	.	.	.	.	.
!	!	!LO:LB:g=original	!	!	!	!	!	!	!	!	!	!	!	!	!	!
=47	=47	=47	=47	=47	=47	=47	=47	=47	=47	=47	=47	=47	=47	=47	=47	=47
2A\	.	8a\L	.	8cc#\L	.	.	.	.	.	.	.	1ryy	2A/	.	2e\	.
.	.	8cc#\J	.	8aa\J	.	.	.	.	.	.	.	.	.	.	.	.
.	.	4cc#\	.	4ee\	.	.	.	.	.	.	.	.	.	.	.	.
!	!	!LO:TX:t=P:problem=mixed beam	!	!	!	!	!	!	!	!	!	!	!	!	!	!
4r	.	8cc#\L	.	8cc#\L	.	.	.	.	.	.	.	.	4r	.	4r	.
.	.	8c#/	.	8a\	.	.	.	.	.	.	.	.	.	.	.	.
4E\	.	8d/	.	8b\	.	.	.	.	.	.	.	.	4e\	.	4e\	.
.	.	8B/J	.	8g#X\J	.	.	.	.	.	.	.	.	.	.	.	.
!	!	!	!	!	!	!	!	!	!	!	!	!	!	!	!LO:LB:g=original	!
=48	=48	=48	=48	=48	=48	=48	=48	=48	=48	=48	=48	=48	=48	=48	=48	=48
4A\	.	8a\L	.	8aa\L	.	.	.	.	.	.	.	1ryy	4A/	.	4e\	.
.	.	16cc#\L	.	16ee\L	.	.	.	.	.	.	.	.	.	.	.	.
.	.	16cc#\JJ	.	16ee\JJ	.	.	.	.	.	.	.	.	.	.	.	.
4AA/	.	8cc#\L	.	8ee\L	.	.	.	.	.	.	.	.	4A/	.	4e\	.
.	.	16a\L	.	16cc#\L	.	.	.	.	.	.	.	.	.	.	.	.
.	.	16a\JJ	.	16cc#\JJ	.	.	.	.	.	.	.	.	.	.	.	.
!	!	!	!	!LO:LB:g=original	!	!	!	!	!	!	!	!	!	!	!	!
4AA/	.	8a/L	.	8cc#/L	.	.	.	.	.	.	.	.	4A/	.	4e\	.
.	.	16c#/L	.	16a/L	.	.	.	.	.	.	.	.	.	.	.	.
.	.	16c#/JJ	.	16a/JJ	.	.	.	.	.	.	.	.	.	.	.	.
4AA/	.	8c#/L	.	8a/L	.	.	.	.	.	.	.	.	4A/	.	4e\	.
.	.	16c#/L	.	16e/L	.	.	.	.	.	.	.	.	.	.	.	.
.	.	16c#/JJ	.	16e/JJ	.	.	.	.	.	.	.	.	.	.	.	.
=49	=49	=49	=49	=49	=49	=49	=49	=49	=49	=49	=49	=49	=49	=49	=49	=49
*tremolo	*	*	*	*	*	*	*	*	*	*	*	*	*tremolo	*	*	*
!	!	!	!	!LO:TX:t=P:problem=mixed beam	!	!	!	!	!	!	!	!	!	!	!	!
8AA/L	.	8cc#L 8e 8A/	.	8c#/L	.	00r	.	00r	.	2r	.	1ryy	8A/L	.	8e\L	.
8AA/	.	8cc# 8e 8A/	.	8aa 8cc#\	.	.	.	.	.	.	.	.	8A/	.	8e\	.
8AA/	.	8cc# 8e 8A/	.	8aa 8cc#\	.	.	.	.	.	.	.	.	8A/	.	8e\	.
8AA/J	.	8cc#J 8e 8A/	.	8aaJ 8cc#\	.	.	.	.	.	.	.	.	8A/J	.	8e\J	.
*Xtremolo	*	*	*	*	*	*	*	*	*	*	*	*	*Xtremolo	*	*	*
4AA/	.	4cc# 4e 4A/	.	4aa 4cc#\	.	.	.	.	.	4r	.	.	4A/	.	4e\	.
4r	.	4r	.	8r	.	.	.	.	.	4ccn\	si-	.	4r	.	4r	.
.	.	.	.	8ccn\	p	.	.	.	.	.	.	.	.	.	.	.
=50	=50	=50	=50	=50	=50	=50	=50	=50	=50	=50	=50	=50	=50	=50	=50	=50
*	*	*^	*	*	*	*	*	*	*	*	*	*	*	*	*	*
!	!LO:DY:t=mezo	!	!	!	!	!	!	!	!	!	!	!	!	!LO:TX:a:t=4	!	!	!
(4D#X\	mf	8a/	1A	p	4b\	.	.	.	.	.	4b\	-ne	1ryy	00r	.	00r	.
.	.	4a/	.	.	.	.	.	.	.	.	.	.	.	.	.	.	.
4F#\)	.	.	.	.	2b\	.	.	.	.	.	8b\	fi-	.	.	.	.	.
.	.	4a/	.	.	.	.	.	.	.	.	8b\	-ne	.	.	.	.	.
(4BB\	.	.	.	.	.	.	.	.	.	.	4b\	.	.	.	.	.	.
.	.	4a/	.	.	.	.	.	.	.	.	.	.	.	.	.	.	.
4D#X\)	.	.	.	.	4b\	.	.	.	.	.	4a\	can-	.	.	.	.	.
.	.	8a/	.	.	.	.	.	.	.	.	.	.	.	.	.	.	.
*	*	*v	*v	*	*	*	*	*	*	*	*	*	*	*	*	*	*
=51	=51	=51	=51	=51	=51	=51	=51	=51	=51	=51	=51	=51	=51	=51	=51	=51
(4E\	.	8g/	.	8b\L	.	.	.	.	.	4g\	-te-	1ryy	.	.	.	.
.	.	4g/	.	8ee\J	.	.	.	.	.	.	.	.	.	.	.	.
4G\)	.	.	.	4b\	.	.	.	.	.	4e\	-mus	.	.	.	.	.
.	.	4g/	.	.	.	.	.	.	.	.	.	.	.	.	.	.
4E\	.	.	.	4r	.	.	.	.	.	4r	.	.	.	.	.	.
.	.	4g/	.	.	.	.	.	.	.	.	.	.	.	.	.	.
4EE/	.	.	.	8a\L	.	.	.	.	.	8a\	ne-	.	.	.	.	.
.	.	8g/	.	8ccn\J	.	.	.	.	.	8ccn\	-o	.	.	.	.	.
!	!	!LO:LB:g=original	!	!	!	!	!	!	!	!LO:LB:g=original	!	!	!	!	!	!
=52	=52	=52	=52	=52	=52	=52	=52	=52	=52	=52	=52	=52	=52	=52	=52	=52
*	*	*^	*	*	*	*	*	*	*	*	*	*	*	*	*	*
(4D#X\	.	8a/	1A	.	4b\	.	.	.	.	.	4.b\	na-	1ryy	.	.	.	.
.	.	4a/	.	.	.	.	.	.	.	.	.	.	.	.	.	.	.
4F#\)	.	.	.	.	2b\	.	.	.	.	.	.	.	.	.	.	.	.
.	.	4a/	.	.	.	.	.	.	.	.	8b\	-to	.	.	.	.	.
(4BB\	.	.	.	.	.	.	.	.	.	.	4.b\	sal-	.	.	.	.	.
.	.	4a/	.	.	.	.	.	.	.	.	.	.	.	.	.	.	.
4D#X\)	.	.	.	.	4b\	.	.	.	.	.	.	.	.	.	.	.	.
.	.	8a/	.	.	.	.	.	.	.	.	8a\	-va-	.	.	.	.	.
*	*	*v	*v	*	*	*	*	*	*	*	*	*	*	*	*	*	*
=53	=53	=53	=53	=53	=53	=53	=53	=53	=53	=53	=53	=53	=53	=53	=53	=53
(4E\	.	8g/	.	8b\L	.	00r	.	0r	.	4g\	-to-	1ryy	.	.	.	.
.	.	4g/	.	8ee\J	.	.	.	.	.	.	.	.	.	.	.	.
4G\)	.	.	.	4b\	.	.	.	.	.	4e\	-ri	.	.	.	.	.
.	.	4g/	.	.	.	.	.	.	.	.	.	.	.	.	.	.
4E\	.	.	.	4r	.	.	.	.	.	4r	.	.	.	.	.	.
.	.	4g/	.	.	.	.	.	.	.	.	.	.	.	.	.	.
4D\	.	.	.	8g/L	.	.	.	.	.	8.g\	al-	.	.	.	.	.
.	.	8g/	.	8b/J	.	.	.	.	.	.	.	.	.	.	.	.
.	.	.	.	.	.	.	.	.	.	16b\	-le-	.	.	.	.	.
!LO:LB:g=original	!	!	!	!	!	!	!	!	!	!	!	!	!	!	!	!
=54	=54	=54	=54	=54	=54	=54	=54	=54	=54	=54	=54	=54	=54	=54	=54	=54
!	!	!	!	!	!	!	!	!	!	!LO:N:vis=4.	!	!	!	!	!	!
(4C#/	.	8g/	.	4a/	.	.	.	.	.	4a\	-lu-	1ryy	1A	.	1e	.
.	.	4g/	.	.	.	.	.	.	.	.	.	.	.	.	.	.
4E/)	.	.	.	2a/	.	.	.	.	.	8a\	-ja	.	.	.	.	.
*	*	*	*	*	*	*	*	*	*	*	*ij	*	*	*	*	*
.	.	4g/	.	.	.	.	.	.	.	8a\	al-	.	.	.	.	.
(4AA/	.	.	.	.	.	.	.	.	.	4.ee\	-le-	.	.	.	.	.
.	.	4g/	.	.	.	.	.	.	.	.	.	.	.	.	.	.
4C#/)	.	.	.	4a/	.	.	.	.	.	.	.	.	.	.	.	.
.	.	8g/	.	.	.	.	.	.	.	8g\	.	.	.	.	.	.
!	!	!	!	!LO:LB:g=original	!	!	!	!	!	!	!	!	!LO:LB:g=original	!	!	!
=55	=55	=55	=55	=55	=55	=55	=55	=55	=55	=55	=55	=55	=55	=55	=55	=55
(4D\	.	8f#/	.	8a\L	.	.	.	1r	.	4f#\	-lu-	1ryy	4d\	.	4f#\	.
.	.	4f#/	.	8dd\J	.	.	.	.	.	.	.	.	.	.	.	.
4F#\)	.	.	.	4a/	.	.	.	.	.	4d\	-ja	.	4r	.	4r	.
*	*	*	*	*	*	*	*	*	*	*	*Xij	*	*	*	*	*
.	.	4f#/	.	.	.	.	.	.	.	.	.	.	.	.	.	.
4D\	.	.	.	4r	.	.	.	.	.	4r	.	.	2r	.	2r	.
.	.	4f#/	.	.	.	.	.	.	.	.	.	.	.	.	.	.
4DD/	.	.	.	8g\L	.	.	.	.	.	8g\	si-	.	.	.	.	.
.	.	8f#/	.	8b\J	.	.	.	.	.	8b\	-ne	.	.	.	.	.
=56	=56	=56	=56	=56	=56	=56	=56	=56	=56	=56	=56	=56	=56	=56	=56	=56
!	!	!	!	!	!	!	!	!LO:TX:t=P:problem=brak taktu nr 56	!	!	!	!	!	!	!	!
(4C#/	.	8g/	.	4a\	.	.	.	1ryy	.	4.a\	fi-	1ryy	1A	.	1e	.
.	.	4g/	.	.	.	.	.	.	.	.	.	.	.	.	.	.
4E/)	.	.	.	2a\	.	.	.	.	.	.	.	.	.	.	.	.
.	.	4g/	.	.	.	.	.	.	.	8a\	-ne	.	.	.	.	.
(4AA/	.	.	.	.	.	.	.	.	.	4ee\	.	.	.	.	.	.
.	.	4g/	.	.	.	.	.	.	.	.	.	.	.	.	.	.
4C#/)	.	.	.	4a\	.	.	.	.	.	4g\	can-	.	.	.	.	.
.	.	8g/	.	.	.	.	.	.	.	.	.	.	.	.	.	.
!	!	!	!	!	!	!	!	!	!	!LO:LB:g=original	!	!	!	!	!	!
=57	=57	=57	=57	=57	=57	=57	=57	=57	=57	=57	=57	=57	=57	=57	=57	=57
4D\	.	4f#/	.	8a\L	.	2r	.	2r	.	4f#/	-te-	1ryy	4d\	.	4f#\	.
.	.	.	.	8dd\J	.	.	.	.	.	.	.	.	.	.	.	.
4F#\	.	4f#/	.	4a\	.	.	.	.	.	4d/	-mus	.	4r	.	4r	.
4D\	.	2r	.	2r	.	4r	.	4r	.	4r	.	.	2r	.	2r	.
4r	.	.	.	.	.	8d\	er-	8dd\	si-	8dd\	si-	.	.	.	.	.
.	.	.	.	.	.	8d\	-go	8dd\	-ne	8dd\	-ne	.	.	.	.	.
=58	=58	=58	=58	=58	=58	=58	=58	=58	=58	=58	=58	=58	=58	=58	=58	=58
*	*	*tremolo	*	*tremolo	*	*	*	*	*	*	*	*	*	*	*	*
!	!	!	!LO:DY:rj	!	!	!	!	!	!	!	!	!	!	!	!LO:TX:a:t=8	!
8F#\L	ff	16aLL 16d/	ff	16aaLL 16dd\	ff	4F#\	si-	4f#/	fi-	4.dd\	fi-	1ryy	00r	.	00r	.
.	.	16a 16d/	.	16aa 16dd\	.	.	.	.	.	.	.	.	.	.	.	.
8d\	.	16a 16d/	.	16aa 16dd\	.	.	.	.	.	.	.	.	.	.	.	.
.	.	16a 16d/	.	16aa 16dd\	.	.	.	.	.	.	.	.	.	.	.	.
8F#\	.	16a 16d/	.	16aa 16dd\	.	4A\	-ne	4f#/	-ne	.	.	.	.	.	.	.
.	.	16a 16d/	.	16aa 16dd\	.	.	.	.	.	.	.	.	.	.	.	.
8d\J	.	16a 16d/	.	16aa 16dd\	.	.	.	.	.	16ccn\LL	-ne	.	.	.	.	.
.	.	16aJJ 16d/	.	16aaJJ 16dd\	.	.	.	.	.	16b\JJ	.	.	.	.	.	.
!	!	!	!	!LO:TX:t=P:problem=♮ na początku taktu	!	!	!	!	!	!	!	!	!	!	!	!
8F#\L	.	16aLL 16d/	.	16cccnLL 16dd\	.	4d\	fi-	4a/	.	4a\	.	.	.	.	.	.
.	.	16a 16d/	.	16ccc 16dd\	.	.	.	.	.	.	.	.	.	.	.	.
8d\	.	16a 16d/	.	16ccc 16dd\	.	.	.	.	.	.	.	.	.	.	.	.
.	.	16a 16d/	.	16ccc 16dd\	.	.	.	.	.	.	.	.	.	.	.	.
8F#\	.	16a 16d/	.	16ccc 16dd\	.	4F#\	-ne	4f#/	can-	4dd\	can-	.	.	.	.	.
.	.	16a 16d/	.	16ccc 16dd\	.	.	.	.	.	.	.	.	.	.	.	.
8d\J	.	16a 16d/	.	16ccc 16dd\	.	.	.	.	.	.	.	.	.	.	.	.
.	.	16aJJ 16d/	.	16cccJJ 16dd\	.	.	.	.	.	.	.	.	.	.	.	.
=59	=59	=59	=59	=59	=59	=59	=59	=59	=59	=59	=59	=59	=59	=59	=59	=59
8G\L	.	16g\LL	.	16bbLL 16dd\	.	4G\	fi-	4g/	-te-	4b\	-te-	1ryy	.	.	.	.
.	.	16g\	.	16bb 16dd\	.	.	.	.	.	.	.	.	.	.	.	.
8d\	.	16g\	.	16bb 16dd\	.	.	.	.	.	.	.	.	.	.	.	.
.	.	16g\	.	16bb 16dd\	.	.	.	.	.	.	.	.	.	.	.	.
8G\	.	16g\	.	16bb 16dd\	.	4GG/	-ne	4b/	-mus	4g\	-mus	.	.	.	.	.
.	.	16g\	.	16bb 16dd\	.	.	.	.	.	.	.	.	.	.	.	.
8d\J	.	16g\	.	16bb 16dd\	.	.	.	.	.	.	.	.	.	.	.	.
.	.	16g\JJ	.	16bbJJ 16dd\	.	.	.	.	.	.	.	.	.	.	.	.
8G\L	.	16g\LL	.	16bbLL 16dd\	.	4r	.	4r	.	4r	.	.	.	.	.	.
.	.	16g\	.	16bb 16dd\	.	.	.	.	.	.	.	.	.	.	.	.
8d\	.	16g\	.	16bb 16dd\	.	.	.	.	.	.	.	.	.	.	.	.
.	.	16g\	.	16bb 16dd\	.	.	.	.	.	.	.	.	.	.	.	.
8G\	.	16g\	.	16bb 16dd\	.	8d\	er-	8dd\	ne-	8dd\	ne-	.	.	.	.	.
.	.	16g\	.	16bb 16dd\	.	.	.	.	.	.	.	.	.	.	.	.
8d\J	.	16g\	.	16bb 16dd\	.	8d\	-go	8dd\	-o	8dd\	-o	.	.	.	.	.
.	.	16g\JJ	.	16bbJJ 16dd\	.	.	.	.	.	.	.	.	.	.	.	.
!	!	!LO:LB:g=original	!	!	!	!LO:LB:g=original	!	!LO:LB:g=original	!	!	!	!	!	!	!	!
=60	=60	=60	=60	=60	=60	=60	=60	=60	=60	=60	=60	=60	=60	=60	=60	=60
!	!	!	!	!LO:SIC:v:n=1:s=16cccnLL	!	!	!	!	!	!	!	!	!	!	!	!
8F#\L	.	16aLL 16d/	.	16ccc#LL 16dd\	.	4F#\	si-	4f#/	na-	4.dd\	na-	1ryy	.	.	.	.
!	!	!	!	!LO:SIC:v:n=1:s=16cccnLL	!	!	!	!	!	!	!	!	!	!	!	!
.	.	16a 16d/	.	16ccc# 16dd\	.	.	.	.	.	.	.	.	.	.	.	.
!	!	!	!	!LO:SIC:v:n=1:s=16cccnLL	!	!	!	!	!	!	!	!	!	!	!	!
8d\	.	16a 16d/	.	16ccc# 16dd\	.	.	.	.	.	.	.	.	.	.	.	.
!	!	!	!	!LO:SIC:v:n=1:s=16cccnLL	!	!	!	!	!	!	!	!	!	!	!	!
.	.	16a 16d/	.	16ccc# 16dd\	.	.	.	.	.	.	.	.	.	.	.	.
!	!	!	!	!LO:SIC:v:n=1:s=16cccnLL	!	!	!	!	!	!	!	!	!	!	!	!
8F#\	.	16a 16d/	.	16ccc# 16dd\	.	4A\	-ne	4f#/	-to	.	.	.	.	.	.	.
!	!	!	!	!LO:SIC:v:n=1:s=16cccnLL	!	!	!	!	!	!	!	!	!	!	!	!
.	.	16a 16d/	.	16ccc# 16dd\	.	.	.	.	.	.	.	.	.	.	.	.
!	!	!	!	!LO:SIC:v:n=1:s=16cccnLL	!	!	!	!	!	!	!	!	!	!	!	!
8d\J	.	16a 16d/	.	16ccc# 16dd\	.	.	.	.	.	16ccn\LL	-to	.	.	.	.	.
!	!	!	!	!LO:SIC:v:n=1:s=16cccnLL	!	!	!	!	!	!	!	!	!	!	!	!
.	.	16aJJ 16d/	.	16ccc#JJ 16dd\	.	.	.	.	.	16b\JJ	.	.	.	.	.	.
!LO:LB:g=original	!	!	!	!LO:SIC:v:n=1:s=16cccnLL	!	!	!	!	!	!	!	!	!	!	!	!
8F#\L	.	16aLL 16d/	.	16ccc#LL 16dd\	.	4d\	fi-	4a/	Sal-	4cc\	Sal-	.	.	.	.	.
!	!	!	!	!LO:SIC:v:n=1:s=16cccnLL	!	!	!	!	!	!	!	!	!	!	!	!
.	.	16a 16d/	.	16ccc# 16dd\	.	.	.	.	.	.	.	.	.	.	.	.
!	!	!	!	!LO:SIC:v:n=1:s=16cccnLL	!	!	!	!	!	!	!	!	!	!	!	!
8d\	.	16a 16d/	.	16ccc# 16dd\	.	.	.	.	.	.	.	.	.	.	.	.
!	!	!	!	!LO:SIC:v:n=1:s=16cccnLL	!	!	!	!	!	!	!	!	!	!	!	!
.	.	16a 16d/	.	16ccc# 16dd\	.	.	.	.	.	.	.	.	.	.	.	.
!	!	!	!	!LO:SIC:v:n=1:s=16cccnLL	!	!	!	!	!	!	!	!	!	!	!	!
8F#\	.	16a 16d/	.	16ccc# 16dd\	.	4F#\	-ne_can-	4f#/	-va-	4dd\	-va-	.	.	.	.	.
!	!	!	!	!LO:SIC:v:n=1:s=16cccnLL	!	!	!	!	!	!	!	!	!	!	!	!
.	.	16a 16d/	.	16ccc# 16dd\	.	.	.	.	.	.	.	.	.	.	.	.
!	!	!	!	!LO:SIC:v:n=1:s=16cccnLL	!	!	!	!	!	!	!	!	!	!	!	!
8d\J	.	16a 16d/	.	16ccc# 16dd\	.	.	.	.	.	.	.	.	.	.	.	.
!	!	!	!	!LO:SIC:v:n=1:s=16cccnLL	!	!	!	!	!	!	!	!	!	!	!	!
.	.	16aJJ 16d/	.	16ccc#JJ 16dd\	.	.	.	.	.	.	.	.	.	.	.	.
=61	=61	=61	=61	=61	=61	=61	=61	=61	=61	=61	=61	=61	=61	=61	=61	=61
8G\L	.	16g\LL	.	16bbLL 16dd\	.	4G\	-te-	4g/	-to-	4b\	-to-	1ryy	.	.	.	.
.	.	16g\	.	16bb 16dd\	.	.	.	.	.	.	.	.	.	.	.	.
8d\	.	16g\	.	16bb 16dd\	.	.	.	.	.	.	.	.	.	.	.	.
.	.	16g\	.	16bb 16dd\	.	.	.	.	.	.	.	.	.	.	.	.
8G\	.	16g\	.	16bb 16dd\	.	4GG/	-mus	4b/	-ri	4g\	-ri	.	.	.	.	.
.	.	16g\	.	16bb 16dd\	.	.	.	.	.	.	.	.	.	.	.	.
8d\J	.	16g\	.	16bb 16dd\	.	.	.	.	.	.	.	.	.	.	.	.
.	.	16g\JJ	.	16bbJJ 16dd\	.	.	.	.	.	.	.	.	.	.	.	.
4G\	.	16g\LL	.	16bbLL 16dd\	.	4r	.	4r	.	4r	.	.	.	.	.	.
.	.	16g\	.	16bb 16dd\	.	.	.	.	.	.	.	.	.	.	.	.
.	.	16g\	.	16bb 16dd\	.	.	.	.	.	.	.	.	.	.	.	.
.	.	16g\	.	16bb 16dd\	.	.	.	.	.	.	.	.	.	.	.	.
4r	.	16g\	.	16bb 16dd\	.	8e\	al-	8ee\	al-	8ee\	al-	.	.	.	.	.
.	.	16g\	.	16bb 16dd\	.	.	.	.	.	.	.	.	.	.	.	.
!	!	!	!	!	!	!	!	!	!	!LO:TX:b:i:t=V C	!	!	!	!	!	!
.	.	16g\	.	16bb 16dd\	.	8e\	-le-	8ee\	-le-	8ee\	-le-	.	.	.	.	.
.	.	16g\JJ	.	16bbJJ 16dd\	.	.	.	.	.	.	.	.	.	.	.	.
!	!	!	!	!	!	!	!	!	!	!LO:PB:g=original	!	!	!	!	!	!
=62	=62	=62	=62	=62	=62	=62	=62	=62	=62	=62	=62	=62	=62	=62	=62	=62
8G#X\L	.	16bLL 16e\	.	16dddLL 16ee\	.	4G#X\	-lu-	4g#X\	-llu-	4.ee\	-lu-	1ryy	00r	.	00r	.
.	.	16b 16e\	.	16ddd 16ee\	.	.	.	.	.	.	.	.	.	.	.	.
8e\	.	16b 16e\	.	16ddd 16ee\	.	.	.	.	.	.	.	.	.	.	.	.
.	.	16b 16e\	.	16ddd 16ee\	.	.	.	.	.	.	.	.	.	.	.	.
8G#\	.	16b 16e\	.	16ddd 16ee\	.	4B\	-ja	4g#\	-ja	.	.	.	.	.	.	.
.	.	16b 16e\	.	16ddd 16ee\	.	.	.	.	.	.	.	.	.	.	.	.
8e\J	.	16b 16e\	.	16ddd 16ee\	.	.	.	.	.	16dd\LL	-ja	.	.	.	.	.
.	.	16bJJ 16e\	.	16dddJJ 16ee\	.	.	.	.	.	16cc#\JJ	.	.	.	.	.	.
*	*	*	*	*	*	*	*	*	*	*	*ij	*	*	*	*	*
8G#\L	.	16bLL 16e\	.	16dddLL 16ee\	.	4e\	al-	4b\	al-	4dd\	al-	.	.	.	.	.
.	.	16b 16e\	.	16ddd 16ee\	.	.	.	.	.	.	.	.	.	.	.	.
8e\	.	16b 16e\	.	16ddd 16ee\	.	.	.	.	.	.	.	.	.	.	.	.
.	.	16b 16e\	.	16ddd 16ee\	.	.	.	.	.	.	.	.	.	.	.	.
8G#\	.	16b 16e\	.	16ddd 16ee\	.	4G#\	-le-	4g#\	-le-	4ee\	-le-	.	.	.	.	.
.	.	16b 16e\	.	16ddd 16ee\	.	.	.	.	.	.	.	.	.	.	.	.
8e\J	.	16b 16e\	.	16ddd 16ee\	.	.	.	.	.	.	.	.	.	.	.	.
.	.	16bJJ 16e\	.	16dddJJ 16ee\	.	.	.	.	.	.	.	.	.	.	.	.
!	!	!	!	!LO:LB:g=original	!	!	!	!	!	!	!	!	!	!	!	!
=63	=63	=63	=63	=63	=63	=63	=63	=63	=63	=63	=63	=63	=63	=63	=63	=63
8A\L	.	16a\LL	.	16ccc#XLL 16ee\	.	4A\	-lu-	4a\	-lu-	4cc#\	-lu-	1ryy	.	.	.	.
.	.	16a\	.	16ccc# 16ee\	.	.	.	.	.	.	.	.	.	.	.	.
8e\	.	16a\	.	16ccc# 16ee\	.	.	.	.	.	.	.	.	.	.	.	.
.	.	16a\	.	16ccc# 16ee\	.	.	.	.	.	.	.	.	.	.	.	.
8A\	.	16a\	.	16ccc# 16ee\	.	4AA/	-ja	4cc#\	-ja	4a\	-ja	.	.	.	.	.
.	.	16a\	.	16ccc# 16ee\	.	.	.	.	.	.	.	.	.	.	.	.
8e\J	.	16a\	.	16ccc# 16ee\	.	.	.	.	.	.	.	.	.	.	.	.
.	.	16a\JJ	.	16ccc#JJ 16ee\	.	.	.	.	.	.	.	.	.	.	.	.
8A\L	.	16a\LL	.	16ccc#LL 16ee\	.	4r	.	4r	.	4r	.	.	.	.	.	.
.	.	16a\	.	16ccc# 16ee\	.	.	.	.	.	.	.	.	.	.	.	.
8e\	.	16a\	.	16ccc# 16ee\	.	.	.	.	.	.	.	.	.	.	.	.
.	.	16a\	.	16ccc# 16ee\	.	.	.	.	.	.	.	.	.	.	.	.
8A\	.	16a\	.	16ccc# 16ee\	.	8e\	al-	8ee\	al-	8ee\	al-	.	.	.	.	.
.	.	16a\	.	16ccc# 16ee\	.	.	.	.	.	.	.	.	.	.	.	.
8e\J	.	16a\	.	16ccc# 16ee\	.	8e\	-le-	8ee\	-le-	8ee\	-le-	.	.	.	.	.
.	.	16a\JJ	.	16ccc#JJ 16ee\	.	.	.	.	.	.	.	.	.	.	.	.
=64	=64	=64	=64	=64	=64	=64	=64	=64	=64	=64	=64	=64	=64	=64	=64	=64
8G#X\L	.	16bLL 16e\	.	16dddLL 16ee\	.	4G#X\	-lu-	4g#X\	-lu-	4.ee\	-lu-	1ryy	.	.	.	.
.	.	16b 16e\	.	16ddd 16ee\	.	.	.	.	.	.	.	.	.	.	.	.
8e\	.	16b 16e\	.	16ddd 16ee\	.	.	.	.	.	.	.	.	.	.	.	.
.	.	16b 16e\	.	16ddd 16ee\	.	.	.	.	.	.	.	.	.	.	.	.
8G#\	.	16b 16e\	.	16ddd 16ee\	.	4B\	-ja	4g#\	-ja	.	.	.	.	.	.	.
.	.	16b 16e\	.	16ddd 16ee\	.	.	.	.	.	.	.	.	.	.	.	.
8e\J	.	16b 16e\	.	16ddd 16ee\	.	.	.	.	.	16dd\LL	-ja	.	.	.	.	.
.	.	16bJJ 16e\	.	16dddJJ 16ee\	.	.	.	.	.	16cc#\JJ	.	.	.	.	.	.
*	*	*	*	*	*	*	*	*	*ij	*	*	*	*	*	*	*
8G#\L	.	16bLL 16e\	.	16dddLL 16ee\	.	4e\	al-	4b\	al-	4dd\	al-	.	.	.	.	.
.	.	16b 16e\	.	16ddd 16ee\	.	.	.	.	.	.	.	.	.	.	.	.
8e\	.	16b 16e\	.	16ddd 16ee\	.	.	.	.	.	.	.	.	.	.	.	.
.	.	16b 16e\	.	16ddd 16ee\	.	.	.	.	.	.	.	.	.	.	.	.
8G#\	.	16b 16e\	.	16ddd 16ee\	.	4G#\	-le-	4g#\	-le-	4ee\	-le-	.	.	.	.	.
.	.	16b 16e\	.	16ddd 16ee\	.	.	.	.	.	.	.	.	.	.	.	.
8e\J	.	16b 16e\	.	16ddd 16ee\	.	.	.	.	.	.	.	.	.	.	.	.
.	.	16bJJ 16e\	.	16dddJJ 16ee\	.	.	.	.	.	.	.	.	.	.	.	.
=65	=65	=65	=65	=65	=65	=65	=65	=65	=65	=65	=65	=65	=65	=65	=65	=65
8A\L	.	16a\LL	.	16ccc#LL 16ee\	.	4A\	-lu-	4a\	-lu-	4cc#\	-lu-	1ryy	.	.	.	.
.	.	16a\	.	16ccc# 16ee\	.	.	.	.	.	.	.	.	.	.	.	.
8e\	.	16a\	.	16ccc# 16ee\	.	.	.	.	.	.	.	.	.	.	.	.
.	.	16a\	.	16ccc# 16ee\	.	.	.	.	.	.	.	.	.	.	.	.
8A\	.	16a\	.	16ccc# 16ee\	.	4AA/	-ja	4cc#\	-ja	4a\	-ja	.	.	.	.	.
*	*	*	*	*	*	*	*	*	*Xij	*	*	*	*	*	*	*
.	.	16a\	.	16ccc# 16ee\	.	.	.	.	.	.	.	.	.	.	.	.
8e\J	.	16a\	.	16ccc# 16ee\	.	.	.	.	.	.	.	.	.	.	.	.
.	.	16a\JJ	.	16ccc#JJ 16ee\	.	.	.	.	.	.	.	.	.	.	.	.
*	*	*Xtremolo	*	*Xtremolo	*	*	*	*	*	*	*	*	*	*	*	*
!	!	!	!	!	!	!LO:LB:g=original	!	!	!	!	!	!	!	!	!	!
4A\	.	4r	.	4r	.	4r	.	4r	.	4r	.	.	.	.	.	.
4A\	.	8a\	.	4a/	.	8A\	al-	8a\	al-	8a\	al-	.	.	.	.	.
!	!	!	!	!	!	!	!	!	!	!	!	!	!	!	!LO:TX:b:i:t=VC&colon;	!
.	.	8a\	.	.	.	8A\	-le-	8a\	-le-	8a\	-le-	.	.	.	.	.
!LO:LB:g=original	!	!	!	!	!	!	!	!LO:LB:g=original	!	!	!	!	!	!	!LO:PB:g=original	!
=66	=66	=66	=66	=66	=66	=66	=66	=66	=66	=66	=66	=66	=66	=66	=66	=66
4c#\|	.	4ee\	.	4gg\|	.	4c#\	-lu-	4ee\	-lu-	4gg\	-lu-	1ryy	4A\	.	4e\	.
4d\|	.	4dd\	.	4ff#\|	.	4d\	-ja	4dd\	-ja	4ff#\	-ja	.	4d\	.	4f#\	.
4r	.	4r	.	4r	.	4r	.	4r	.	4r	.	.	2r	.	2r	.
!	!	!	!	!	!	!	!	!	!	!LO:LB:g=original	!	!	!	!	!	!
4A\	.	8a\	.	4a/|	.	8A\	al-	8a\	al-	8a\	al-	.	.	.	.	.
.	.	8a\	.	.	.	8A\	-le-	8a\	-le-	8a\	-le-	.	.	.	.	.
=67	=67	=67	=67	=67	=67	=67	=67	=67	=67	=67	=67	=67	=67	=67	=67	=67
4c#\|	.	4ee\	.	4gg\|	.	4c#\	-lu-	4ee\	-lu-	4gg\	-lu-	1ryy	4A\	.	4e\	.
4d\|	.	4dd\	.	4ff#\|	.	4d\	-ja	4dd\	-ja	4ff#\	-ja	.	4d\	.	4f#\	.
*	*	*	*	*	*	*	*	*	*ij	*	*Xij	*	*	*	*	*
4r	.	4r	.	4r	.	4r	.	4r	.	4r	.	.	2r	.	2r	.
8d\L	.	8dd\L	.	8dd\L	.	8d\	al-	8dd\	al-	8dd\	al-	.	.	.	.	.
8c#\J	.	8cc#\J	.	8cc#\J	.	8c#\	-le-	8cc#\	-le-	8cc#\	-le-	.	.	.	.	.
!	!	!LO:LB:g=original	!	!	!	!	!	!	!	!	!	!	!	!	!	!
=68	=68	=68	=68	=68	=68	=68	=68	=68	=68	=68	=68	=68	=68	=68	=68	=68
!	!	!	!	!	!	!	!	!	!	!	!	!	!	!	!LO:TX:a:t=2	!
4B\|	.	4b\	.	4b\	.	4B\	-lu-	4b\	-lu-	4b\	-lu-	1ryy	0r	.	0r	.
4B-X\|	.	4b-X\	.	4b-X\|	.	4B-X\	-ja	4b-X\	-ja	4b-X\	-ja	.	.	.	.	.
*	*	*	*	*	*	*	*	*	*Xij	*	*	*	*	*	*	*
4A\|	.	4a\	.	4a\|	.	4A\	can-	4a\	can-	4a\	Can-	.	.	.	.	.
4G#X\|	.	4g#X\	.	4g#X\|	.	4G#X\	-te-	4g#X\	-te-	4g#X\	-te-	.	.	.	.	.
=69	=69	=69	=69	=69	=69	=69	=69	=69	=69	=69	=69	=69	=69	=69	=69	=69
2A;\	.	2a\	.	2a;\	.	2A\;	-mus	2a;\	-mus	2a;\	-mus	1ryy	.	.	.	.
2r	.	4r	.	4r	.	2r	.	4r	.	4r	.	.	.	.	.	.
.	.	4a\	.	4a\	.	.	.	8a\	er-	8a\	er-	.	.	.	.	.
!	!	!	!	!	!	!	!	!	!	!	!	!	!LO:TX:b:i:t=V C&colon;	!	!	!
.	.	.	.	.	.	.	.	8a\	-go	8a\	-go	.	.	.	.	.
!	!	!	!	!	!	!	!	!	!	!	!	!	!LO:PB:g=original	!	!	!
=70	=70	=70	=70	=70	=70	=70	=70	=70	=70	=70	=70	=70	=70	=70	=70	=70
*tremolo	*	*	*	*	*	*	*	*	*	*	*	*	*	*	*	*
!	!	!	!	!	!	!	!	!	!	!	!	!	!	!LO:DY:rj	!	!
8D\L	p	16f#/LL	p	4dd\	p	00r	.	4f#/	si-	4dd\	si-	1ryy	4F#/	pp	1d	p
.	.	16a/	.	.	.	.	.	.	.	.	.	.	.	.	.	.
8D\	.	16f#/	.	.	.	.	.	.	.	.	.	.	.	.	.	.
.	.	16a/JJ	.	.	.	.	.	.	.	.	.	.	.	.	.	.
8D\	.	16f#/LL	.	8dd\L	.	.	.	8e/	-ne	8dd\	-ne	.	8F#/L	.	.	.
.	.	16a/	.	.	.	.	.	.	.	.	.	.	.	.	.	.
8D\J	.	16f#/	.	8dd\J	.	.	.	8f#/	fi-	8dd\	fi-	.	8F#/J	.	.	.
.	.	16a/JJ	.	.	.	.	.	.	.	.	.	.	.	.	.	.
!	!	!	!	!	!	!	!	!	!	!LO:LB:g=original	!	!	!	!	!	!
8D\L	.	16f#/LL	.	4dd\	.	.	.	4f#/	-ne	4dd\	-ne	.	4F#/	.	.	.
.	.	16a/	.	.	.	.	.	.	.	.	.	.	.	.	.	.
8D\	.	16f#/	.	.	.	.	.	.	.	.	.	.	.	.	.	.
.	.	16a/JJ	.	.	.	.	.	.	.	.	.	.	.	.	.	.
8D\	.	16f#/LL	.	4dd\	.	.	.	4f#/	can-	4dd\	can-	.	4F#/	.	.	.
.	.	16a/	.	.	.	.	.	.	.	.	.	.	.	.	.	.
8D\J	.	16f#/	.	.	.	.	.	.	.	.	.	.	.	.	.	.
.	.	16a/JJ	.	.	.	.	.	.	.	.	.	.	.	.	.	.
!	!	!	!	!LO:LB:g=original	!	!	!	!	!	!	!	!	!	!	!	!
=71	=71	=71	=71	=71	=71	=71	=71	=71	=71	=71	=71	=71	=71	=71	=71	=71
!	!	!LO:TX:t=P:problem=niepełna miara taktu	!	!	!	!	!	!	!	!	!	!	!	!	!	!
8E\L	.	4ryy	.	4dd\	.	.	.	4f#/	-te-	4dd\	-te-	1ryy	4F#/	.	4d\	.
8E\	.	.	.	.	.	.	.	.	.	.	.	.	.	.	.	.
8E\	.	16g/LL	.	4cc#\	.	.	.	4g/	.	4cc#\	.	.	4A/	.	4e\	.
.	.	16a/	.	.	.	.	.	.	.	.	.	.	.	.	.	.
8E\J	.	16g/	.	.	.	.	.	.	.	.	.	.	.	.	.	.
.	.	16a/JJ	.	.	.	.	.	.	.	.	.	.	.	.	.	.
!	!	!	!	!	!	!	!	!LO:LB:g=original	!	!	!	!	!	!	!	!
8E\L	.	16g/LL	.	4cc#\	.	.	.	4g/	-mus	4cc#\	-mus	.	4A/	.	4e\	.
.	.	16a/	.	.	.	.	.	.	.	.	.	.	.	.	.	.
8E\	.	16g/	.	.	.	.	.	.	.	.	.	.	.	.	.	.
.	.	16a/JJ	.	.	.	.	.	.	.	.	.	.	.	.	.	.
8E\	.	16g/LL	.	8r	.	.	.	8a\	ne-	8a\	ne-	.	4r	.	4r	.
.	.	16a/	.	.	.	.	.	.	.	.	.	.	.	.	.	.
8E\J	.	16g/	.	8a/	.	.	.	8a\	-o	8a\	-o	.	.	.	.	.
.	.	16a/JJ	.	.	.	.	.	.	.	.	.	.	.	.	.	.
*Xtremolo	*	*	*	*	*	*	*	*	*	*	*	*	*	*	*	*
=72	=72	=72	=72	=72	=72	=72	=72	=72	=72	=72	=72	=72	=72	=72	=72	=72
*	*	*	*	*tremolo	*	*	*	*	*	*	*	*	*	*	*	*
8C#/L	.	16e/LL	.	8gg\L	.	.	.	4.a\	na-	4.gg\	na-	1ryy	1A	.	1e	.
.	.	16a/	.	.	.	.	.	.	.	.	.	.	.	.	.	.
8AA/	.	16e/	.	8gg\	.	.	.	.	.	.	.	.	.	.	.	.
.	.	16a/JJ	.	.	.	.	.	.	.	.	.	.	.	.	.	.
8C#/	.	16e/LL	.	8gg\	.	.	.	.	.	.	.	.	.	.	.	.
.	.	16a/	.	.	.	.	.	.	.	.	.	.	.	.	.	.
8AA/J	.	16e/	.	8gg\J	.	.	.	8a\	-to	8gg\	-to	.	.	.	.	.
.	.	16a/JJ	.	.	.	.	.	.	.	.	.	.	.	.	.	.
!	!	!LO:LB:g=original	!	!	!	!	!	!	!	!LO:N:vis=4.	!	!	!	!	!	!
8C#/L	.	16e/LL	.	8gg\L	.	.	.	4a\	Sal-	4gg\	Sal-	.	.	.	.	.
.	.	16a/	.	.	.	.	.	.	.	.	.	.	.	.	.	.
8AA/	.	16e/	.	8gg\	.	.	.	.	.	.	.	.	.	.	.	.
.	.	16a/JJ	.	.	.	.	.	.	.	.	.	.	.	.	.	.
!	!	!	!	!	!	!	!	!	!	!LO:TX:a:t=vi	!	!	!	!	!	!
8C#/	.	16e/LL	.	8gg\	.	.	.	4a\	-va-	4gg\	-va-	.	.	.	.	.
.	.	16a/	.	.	.	.	.	.	.	.	.	.	.	.	.	.
8AA/J	.	16e/	.	8gg\J	.	.	.	.	.	.	.	.	.	.	.	.
.	.	16a/JJ	.	.	.	.	.	.	.	.	.	.	.	.	.	.
*	*	*	*	*Xtremolo	*	*	*	*	*	*	*	*	*	*	*	*
!LO:LB:g=original	!	!	!	!	!	!	!	!	!	!	!	!	!	!	!	!
=73	=73	=73	=73	=73	=73	=73	=73	=73	=73	=73	=73	=73	=73	=73	=73	=73
*tremolo	*	*	*	*	*	*	*	*	*	*	*	*	*	*	*	*
!	!	!	!	!	!	!	!	!	!	!LO:TX:a:t=de	!	!	!	!	!	!
8D\L	.	16f#/LL	.	4gg\	.	.	.	4dd\	-to-	4gg\	-to-	1ryy	4A/	.	4e\	.
.	.	16a/	.	.	.	.	.	.	.	.	.	.	.	.	.	.
8D\	.	16f#/	.	.	.	.	.	.	.	.	.	.	.	.	.	.
.	.	16a/JJ	.	.	.	.	.	.	.	.	.	.	.	.	.	.
8D\	.	16f#/LL	.	4ff#\	.	.	.	4dd\	-ri	4ff#\	-rem	.	4d\	.	4f#\	.
.	.	16a/	.	.	.	.	.	.	.	.	.	.	.	.	.	.
8D\J	.	16f#/	.	.	.	.	.	.	.	.	.	.	.	.	.	.
.	.	16a/JJ	.	.	.	.	.	.	.	.	.	.	.	.	.	.
8D\L	.	16f#/LL	.	4ff#\	.	.	.	2r	.	2r	.	.	4d\	.	4f#\	.
.	.	16a/	.	.	.	.	.	.	.	.	.	.	.	.	.	.
8D\	.	16f#/	.	.	.	.	.	.	.	.	.	.	.	.	.	.
.	.	16a/JJ	.	.	.	.	.	.	.	.	.	.	.	.	.	.
8D\	.	16f#/LL	.	8ff#\L	.	.	.	.	.	.	.	.	4r	.	4r	.
.	.	16a/	.	.	.	.	.	.	.	.	.	.	.	.	.	.
8D\J	.	16f#/	.	8dd\J	.	.	.	.	.	.	.	.	.	.	.	.
.	.	16a/JJ	.	.	.	.	.	.	.	.	.	.	.	.	.	.
*Xtremolo	*	*	*	*	*	*	*	*	*	*	*	*	*	*	*	*
=74	=74	=74	=74	=74	=74	=74	=74	=74	=74	=74	=74	=74	=74	=74	=74	=74
*	*	*	*	*tremolo	*	*	*	*	*	*	*	*	*	*	*	*
!	!	!	!LO:DY:t=f&colon;:rj	!LO:TX:t=P:problem=mixed beam	!	!	!	!	!	!	!	!	!	!	!	!
4D\	ff	4f# 4A/	f	16aLL/	ff	1r	.	2r	.	2r	.	1ryy	4D/	.	1f#	.
.	.	.	.	16aa\	.	.	.	.	.	.	.	.	.	.	.	.
.	.	.	.	16a/	.	.	.	.	.	.	.	.	.	.	.	.
.	.	.	.	16aa\	.	.	.	.	.	.	.	.	.	.	.	.
4F#\	.	4r	.	16a/	.	.	.	.	.	.	.	.	4F#/	.	.	.
.	.	.	.	16aa\	.	.	.	.	.	.	.	.	.	.	.	.
.	.	.	.	16a/	.	.	.	.	.	.	.	.	.	.	.	.
.	.	.	.	16aaJJ\	.	.	.	.	.	.	.	.	.	.	.	.
!	!	!	!	!LO:TX:t=P:problem=mixed beam	!	!	!	!	!	!	!	!	!	!	!	!
4A\	.	4r	.	16aLL/	.	.	.	4.a\	Sal-	4ff#\	ne-	.	4D/	.	.	.
.	.	.	.	16aa\	.	.	.	.	.	.	.	.	.	.	.	.
.	.	.	.	16a/	.	.	.	.	.	.	.	.	.	.	.	.
.	.	.	.	16aa\	.	.	.	.	.	.	.	.	.	.	.	.
4D\	.	4f# 4A/	.	16a/	.	.	.	.	.	8ff#\	-o	.	4AA/	.	.	.
.	.	.	.	16aa\	.	.	.	.	.	.	.	.	.	.	.	.
!	!	!	!	!	!	!	!	!	!	!LO:TX:b:t=Re	!	!	!	!	!	!
.	.	.	.	16a/	.	.	.	8a\	-va-	8aa\	.	.	.	.	.	.
.	.	.	.	16aaJJ\	.	.	.	.	.	.	.	.	.	.	.	.
=75	=75	=75	=75	=75	=75	=75	=75	=75	=75	=75	=75	=75	=75	=75	=75	=75
*	*	*^	*	*	*	*	*	*	*	*	*	*	*	*	*	*
!	!	!	!	!	!LO:TX:t=P:problem=mixed beam	!	!	!	!	!	!LO:TX:b:t=tro	!	!	!	!	!	!
(4C#\	.	8g/	1A	.	16aLL/	.	4E\	er-	4a\	-to-	4.gg\	na-	1ryy	1A	.	1e	.
.	.	.	.	.	16aa\	.	.	.	.	.	.	.	.	.	.	.	.
.	.	4g/	.	.	16a/	.	.	.	.	.	.	.	.	.	.	.	.
.	.	.	.	.	16aa\	.	.	.	.	.	.	.	.	.	.	.	.
4E\)	.	.	.	.	16a/	.	4G\	-go	4a\	-ri	.	.	.	.	.	.	.
.	.	.	.	.	16aa\	.	.	.	.	.	.	.	.	.	.	.	.
.	.	4g/	.	.	16a/	.	.	.	.	.	8ee\	-to	.	.	.	.	.
.	.	.	.	.	16aaJJ\	.	.	.	.	.	.	.	.	.	.	.	.
.	.	.	.	.	.	.	.	.	.	.	8qqdd/	.	.	.	.	.	.
!	!	!	!	!	!LO:TX:t=P:problem=mixed beam	!	!	!	!	!	!	!	!	!	!	!	!
(4AA\	.	.	.	.	16aLL/	.	4A\	si-	4g\	Sal-	4cc#\	Sal-	.	.	.	.	.
.	.	.	.	.	16aa\	.	.	.	.	.	.	.	.	.	.	.	.
.	.	4g/	.	.	16a/	.	.	.	.	.	.	.	.	.	.	.	.
.	.	.	.	.	16aa\	.	.	.	.	.	.	.	.	.	.	.	.
.	.	.	.	.	.	.	.	.	.	.	8qqb/	.	.	.	.	.	.
4C#\)	.	.	.	.	16a/	.	4G\	-ne	4g\	-va-	4a\	-va-	.	.	.	.	.
.	.	.	.	.	16aa\	.	.	.	.	.	.	.	.	.	.	.	.
.	.	8g/	.	.	16a/	.	.	.	.	.	.	.	.	.	.	.	.
.	.	.	.	.	16aaJJ\	.	.	.	.	.	.	.	.	.	.	.	.
!	!	!	!	!	!	!	!LO:LB:g=original	!	!	!	!LO:LB:g=original	!	!	!	!	!	!
*	*	*v	*v	*	*	*	*	*	*	*	*	*	*	*	*	*	*
=76	=76	=76	=76	=76	=76	=76	=76	=76	=76	=76	=76	=76	=76	=76	=76	=76
!	!	!	!	!LO:TX:t=P:problem=mixed beam	!	!	!	!	!	!	!	!	!	!	!	!
4D\	.	4f# 4A/	.	16aLL/	.	4F#\	fi-	4f#/	-to-	4dd\	-to-	1ryy	4D/	.	1f#	.
.	.	.	.	16aa\	.	.	.	.	.	.	.	.	.	.	.	.
.	.	.	.	16a/	.	.	.	.	.	.	.	.	.	.	.	.
.	.	.	.	16aa\	.	.	.	.	.	.	.	.	.	.	.	.
4D\	.	4r	.	16a/	.	4D\	-ne	4d/	-ri	4ff#\	-ri	.	4F#/	.	.	.
.	.	.	.	16aa\	.	.	.	.	.	.	.	.	.	.	.	.
.	.	.	.	16a/	.	.	.	.	.	.	.	.	.	.	.	.
.	.	.	.	16aaJJ\	.	.	.	.	.	.	.	.	.	.	.	.
!	!	!	!	!LO:TX:t=P:problem=mixed beam	!	!	!	!	!	!	!	!	!	!	!	!
4A\	.	4r	.	16aLL/	.	4r	.	4r	.	4.cc#\	er-	.	4D/	.	.	.
.	.	.	.	16aa\	.	.	.	.	.	.	.	.	.	.	.	.
.	.	.	.	16a/	.	.	.	.	.	.	.	.	.	.	.	.
.	.	.	.	16aa\	.	.	.	.	.	.	.	.	.	.	.	.
4D\	.	4f# 4A/	.	16a/	.	8D\	al-	8f#/	al-	.	.	.	4AA/	.	.	.
.	.	.	.	16aa\	.	.	.	.	.	.	.	.	.	.	.	.
.	.	.	.	16a/	.	8D\	-le-	8f#/	-le-	8aa\	-go	.	.	.	.	.
.	.	.	.	16aaJJ\	.	.	.	.	.	.	.	.	.	.	.	.
=77	=77	=77	=77	=77	=77	=77	=77	=77	=77	=77	=77	=77	=77	=77	=77	=77
*	*	*^	*	*	*	*	*	*	*	*	*	*	*	*	*	*
!	!	!	!	!	!LO:TX:t=P:problem=mixed beam	!	!	!	!	!	!	!	!	!	!	!	!
(4C#/	.	8g/	1A	.	16aLL/	.	4E\	-lu-	4a\	-lu-	4gg\	si-	1ryy	1A	.	1e	.
.	.	.	.	.	16aa\	.	.	.	.	.	.	.	.	.	.	.	.
.	.	4g/	.	.	16a/	.	.	.	.	.	.	.	.	.	.	.	.
.	.	.	.	.	16aa\	.	.	.	.	.	.	.	.	.	.	.	.
4E/)	.	.	.	.	16a/	.	4G\	-ja	4g\	-ja	4ee\	-ne	.	.	.	.	.
.	.	.	.	.	16aa\	.	.	.	.	.	.	.	.	.	.	.	.
.	.	4g/	.	.	16a/	.	.	.	.	.	.	.	.	.	.	.	.
.	.	.	.	.	16aaJJ\	.	.	.	.	.	.	.	.	.	.	.	.
.	.	.	.	.	.	.	.	.	.	.	8qqdd/	.	.	.	.	.	.
*	*	*	*	*	*	*	*	*	*	*ij	*	*	*	*	*	*	*
!	!	!	!	!	!LO:TX:t=P:problem=mixed beam	!	!	!	!	!	!	!	!	!	!	!	!
(4AA/	.	.	.	.	16aLL/	.	4A\	can-	4g\	al-	4cc#\	fi-	.	.	.	.	.
.	.	.	.	.	16aa\	.	.	.	.	.	.	.	.	.	.	.	.
.	.	4g/	.	.	16a/	.	.	.	.	.	.	.	.	.	.	.	.
.	.	.	.	.	16aa\	.	.	.	.	.	.	.	.	.	.	.	.
.	.	.	.	.	.	.	.	.	.	.	8qqb/	.	.	.	.	.	.
4C#/)	.	.	.	.	16a/	.	4G\	.	4g\	-le-	4a\	-ne	.	.	.	.	.
.	.	.	.	.	16aa\	.	.	.	.	.	.	.	.	.	.	.	.
.	.	8g/	.	.	16a/	.	.	.	.	.	.	.	.	.	.	.	.
.	.	.	.	.	16aaJJ\	.	.	.	.	.	.	.	.	.	.	.	.
*	*	*v	*v	*	*	*	*	*	*	*	*	*	*	*	*	*	*
=78	=78	=78	=78	=78	=78	=78	=78	=78	=78	=78	=78	=78	=78	=78	=78	=78
!	!	!	!	!LO:TX:t=P:problem=mixed beam	!	!	!	!	!	!	!	!	!	!	!	!
4D\	.	4f# 4A/	.	16aLL/	.	4F#\	-te-	4f#/	-lu-	4dd\	al-	1ryy	4D/	.	1f#	.
.	.	.	.	16aa\	.	.	.	.	.	.	.	.	.	.	.	.
.	.	.	.	16a/	.	.	.	.	.	.	.	.	.	.	.	.
.	.	.	.	16aa\	.	.	.	.	.	.	.	.	.	.	.	.
4D\	.	4r	.	16a/	.	4D\	-mus	4d/	-ja	4ff#\	-le-	.	4F#/	.	.	.
*	*	*	*	*	*	*	*	*	*Xij	*	*	*	*	*	*	*
.	.	.	.	16aa\	.	.	.	.	.	.	.	.	.	.	.	.
.	.	.	.	16a/	.	.	.	.	.	.	.	.	.	.	.	.
.	.	.	.	16aaJJ\	.	.	.	.	.	.	.	.	.	.	.	.
!	!	!	!	!LO:TX:t=P:problem=mixed beam	!	!	!	!LO:LB:g=original	!	!	!	!	!	!	!	!
4A\	.	4r	.	16aLL/	.	4r	.	4r	.	4.aa\	-lu-	.	4D/	.	.	.
.	.	.	.	16aa\	.	.	.	.	.	.	.	.	.	.	.	.
.	.	.	.	16a/	.	.	.	.	.	.	.	.	.	.	.	.
.	.	.	.	16aa\	.	.	.	.	.	.	.	.	.	.	.	.
4D\	.	4f# 4A/	.	16a/	.	8D\	ne-	8a\	ne-	.	.	.	4AA/	.	.	.
.	.	.	.	16aa\	.	.	.	.	.	.	.	.	.	.	.	.
.	.	.	.	16a/	.	8D\	-o	8a\	-o	8ff#\	-ja	.	.	.	.	.
.	.	.	.	16aaJJ\	.	.	.	.	.	.	.	.	.	.	.	.
!	!	!	!	!LO:LB:g=original	!	!	!	!	!	!	!	!	!LO:LB:g=original	!	!LO:LB:g=original	!
=79	=79	=79	=79	=79	=79	=79	=79	=79	=79	=79	=79	=79	=79	=79	=79	=79
*	*	*^	*	*	*	*	*	*	*	*	*	*	*	*	*	*
!	!	!	!	!	!LO:TX:t=P:problem=mixed beam	!	!	!	!	!	!	!	!	!	!	!	!
(4C#/	.	8g/	1A	.	16aLL/	.	4E\	na-	4a\	na-	4gg\	al-	1ryy	1A	.	1e	.
.	.	.	.	.	16aa\	.	.	.	.	.	.	.	.	.	.	.	.
.	.	4g/	.	.	16a/	.	.	.	.	.	.	.	.	.	.	.	.
.	.	.	.	.	16aa\	.	.	.	.	.	.	.	.	.	.	.	.
4E/)	.	.	.	.	16a/	.	4G\	-to	4g\	-to	4ee\	-le-	.	.	.	.	.
.	.	.	.	.	16aa\	.	.	.	.	.	.	.	.	.	.	.	.
.	.	4g/	.	.	16a/	.	.	.	.	.	.	.	.	.	.	.	.
.	.	.	.	.	16aaJJ\	.	.	.	.	.	.	.	.	.	.	.	.
.	.	.	.	.	.	.	.	.	.	.	8qqdd/	.	.	.	.	.	.
!	!	!	!	!	!LO:TX:t=P:problem=mixed beam	!	!	!	!	!	!	!	!	!	!	!	!
(4AA/	.	.	.	.	16aLL/	.	4A\	Sal-	4g\	Sal-	4cc#\	-lu-	.	.	.	.	.
.	.	.	.	.	16aa\	.	.	.	.	.	.	.	.	.	.	.	.
.	.	4g/	.	.	16a/	.	.	.	.	.	.	.	.	.	.	.	.
.	.	.	.	.	16aa\	.	.	.	.	.	.	.	.	.	.	.	.
.	.	.	.	.	.	.	.	.	.	.	8qqb/	.	.	.	.	.	.
4C#/)	.	.	.	.	16a/	.	4G\	-va-	4g\	-va-	4a\	-ja	.	.	.	.	.
.	.	.	.	.	16aa\	.	.	.	.	.	.	.	.	.	.	.	.
.	.	8g/	.	.	16a/	.	.	.	.	.	.	.	.	.	.	.	.
.	.	.	.	.	16aaJJ\	.	.	.	.	.	.	.	.	.	.	.	.
*	*	*v	*v	*	*	*	*	*	*	*	*	*	*	*	*	*	*
=80	=80	=80	=80	=80	=80	=80	=80	=80	=80	=80	=80	=80	=80	=80	=80	=80
!	!	!	!	!LO:TX:t=P:problem=mixed beam	!	!	!	!	!	!	!	!	!	!	!	!
4D\	.	4f# 4A/	.	16aLL/	.	4F#\	-to-	4f#/	-tor-	4dd\	ne-	1ryy	4D/	.	1f#	.
.	.	.	.	16aa\	.	.	.	.	.	.	.	.	.	.	.	.
.	.	.	.	16a/	.	.	.	.	.	.	.	.	.	.	.	.
.	.	.	.	16aa\	.	.	.	.	.	.	.	.	.	.	.	.
4D\	.	4r	.	16a/	.	4D\	-ri	4d/	-i	4ff#\	-o	.	4F#/	.	.	.
.	.	.	.	16aa\	.	.	.	.	.	.	.	.	.	.	.	.
.	.	.	.	16a/	.	.	.	.	.	.	.	.	.	.	.	.
.	.	.	.	16aaJJ\	.	.	.	.	.	.	.	.	.	.	.	.
!	!	!	!	!LO:TX:t=P:problem=mixed beam	!	!	!	!	!	!	!	!	!	!	!	!
4A\	.	4r	.	16aLL/	.	4r	.	4r	.	4.aa\	na-	.	4D/	.	.	.
.	.	.	.	16aa\	.	.	.	.	.	.	.	.	.	.	.	.
.	.	.	.	16a/	.	.	.	.	.	.	.	.	.	.	.	.
.	.	.	.	16aa\	.	.	.	.	.	.	.	.	.	.	.	.
4D\	.	4f# 4A/	.	16a/	.	8D\	ne-	8f#/	ne-	.	.	.	4AA/	.	.	.
.	.	.	.	16aa\	.	.	.	.	.	.	.	.	.	.	.	.
.	.	.	.	16a/	.	8D\	-o	8f#/	-o	8ff#\	-to	.	.	.	.	.
.	.	.	.	16aaJJ\	.	.	.	.	.	.	.	.	.	.	.	.
!LO:LB:g=original	!	!	!	!	!	!	!	!	!	!	!	!	!	!	!	!
=81	=81	=81	=81	=81	=81	=81	=81	=81	=81	=81	=81	=81	=81	=81	=81	=81
*	*	*^	*	*	*	*	*	*	*	*	*	*	*	*	*	*
!	!	!	!	!	!LO:TX:t=P:problem=mixed beam	!	!	!	!	!	!	!	!	!	!	!	!
(4C#/	.	8g/	1A	.	16aLL/	.	4E\	na-	4a\	na-	4gg\	Sal-	1ryy	1A	.	1e	.
.	.	.	.	.	16aa\	.	.	.	.	.	.	.	.	.	.	.	.
.	.	4g/	.	.	16a/	.	.	.	.	.	.	.	.	.	.	.	.
.	.	.	.	.	16aa\	.	.	.	.	.	.	.	.	.	.	.	.
4E/)	.	.	.	.	16a/	.	4G\	-to	4g\	-to	4ee\	-va-	.	.	.	.	.
.	.	.	.	.	16aa\	.	.	.	.	.	.	.	.	.	.	.	.
.	.	4g/	.	.	16a/	.	.	.	.	.	.	.	.	.	.	.	.
.	.	.	.	.	16aaJJ\	.	.	.	.	.	.	.	.	.	.	.	.
!	!	!	!	!	!	!	!	!	!	!	!LO:LB:g=original	!	!	!	!	!	!
.	.	.	.	.	.	.	.	.	.	.	8qqdd/	.	.	.	.	.	.
!	!	!	!	!	!LO:TX:t=P:problem=mixed beam	!	!	!	!	!	!	!	!	!	!	!	!
(4AA/	.	.	.	.	16aLL/	.	4A\	Sal-	4g\	Sal-	4cc#\	-to-	.	.	.	.	.
.	.	.	.	.	16aa\	.	.	.	.	.	.	.	.	.	.	.	.
.	.	4g/	.	.	16a/	.	.	.	.	.	.	.	.	.	.	.	.
.	.	.	.	.	16aa\	.	.	.	.	.	.	.	.	.	.	.	.
.	.	.	.	.	.	.	.	.	.	.	8qqb/	.	.	.	.	.	.
4C#/)	.	.	.	.	16a/	.	4G\	-va-	4g\	-va-	4a\	-ri	.	.	.	.	.
.	.	.	.	.	16aa\	.	.	.	.	.	.	.	.	.	.	.	.
.	.	8g/	.	.	16a/	.	.	.	.	.	.	.	.	.	.	.	.
.	.	.	.	.	16aaJJ\	.	.	.	.	.	.	.	.	.	.	.	.
*	*	*v	*v	*	*	*	*	*	*	*	*	*	*	*	*	*	*
!	!	!	!	!	!	!LO:LB:g=original	!	!	!	!	!	!	!	!	!	!
=82	=82	=82	=82	=82	=82	=82	=82	=82	=82	=82	=82	=82	=82	=82	=82	=82
!	!	!	!	!LO:TX:t=P:problem=mixed beam	!	!	!	!	!	!	!	!	!	!	!	!
4D\	.	2f# 2A/	.	16aLL/	.	4F#\	-tor-	4f#/	-to-	4dd\	al-	1ryy	2d\	.	2f#\	.
.	.	.	.	16aa\	.	.	.	.	.	.	.	.	.	.	.	.
.	.	.	.	16a/	.	.	.	.	.	.	.	.	.	.	.	.
.	.	.	.	16aa\	.	.	.	.	.	.	.	.	.	.	.	.
4DD/	.	.	.	16a/	.	4D\	-ri	4d/	-ri	4ff#\	-le-	.	.	.	.	.
.	.	.	.	16aa\	.	.	.	.	.	.	.	.	.	.	.	.
.	.	.	.	16a/	.	.	.	.	.	.	.	.	.	.	.	.
.	.	.	.	16aaJJ\	.	.	.	.	.	.	.	.	.	.	.	.
!	!	!	!	!	!	!LO:N:vis=8	!	!	!	!	!	!	!	!	!	!
2r	.	2r	.	2r	.	4F#\	al-	4a\	can-	4dd\	-lu-	.	2r	.	2r	.
!	!	!	!	!	!	!LO:N:vis=8	!	!	!	!	!	!	!	!	!	!
.	.	.	.	.	.	4F#\	-le-	4a\	-te-	4dd\	-ja	.	.	.	.	.
=83	=83	=83	=83	=83	=83	=83	=83	=83	=83	=83	=83	=83	=83	=83	=83	=83
1r	.	1r	.	1r	.	4G\	-lu-	4b\	.	4ee\	al-	1ryy	1r	.	1r	.
.	.	.	.	.	.	4F#\	-ja	4a\	.	4dd\	-le-	.	.	.	.	.
.	.	.	.	.	.	4E\	al-	4g\	.	4cc#\	-lu-	.	.	.	.	.
.	.	.	.	.	.	4D\	-le-	4f#\	.	4dd\	-ja	.	.	.	.	.
=84	=84	=84	=84	=84	=84	=84	=84	=84	=84	=84	=84	=84	=84	=84	=84	=84
2r	.	2r	.	2r	.	2C#\	-lu-	2e/	-mus	2gg\	can-	1ryy	2r	.	2r	.
*tremolo	*	*tremolo	*	*	*	*	*	*	*	*	*	*	*	*	*	*
8A\L	.	16ccc#\LL	.	16ggLL 16a\	.	4A,<\	-ja	4cc#\	al-	4gg\	.	.	4A/	.	4e\	.
.	.	16ccc#\	.	16gg 16a\	.	.	.	.	.	.	.	.	.	.	.	.
8A\	.	16ccc#\	.	16gg 16a\	.	.	.	.	.	.	.	.	.	.	.	.
.	.	16ccc#\	.	16gg 16a\	.	.	.	.	.	.	.	.	.	.	.	.
8A\	.	16ccc#\	.	16gg 16a\	.	4A\	can-	4cc#\	-le-	4gg\	.	.	4A/	.	4e\	.
.	.	16ccc#\	.	16gg 16a\	.	.	.	.	.	.	.	.	.	.	.	.
8A\J	.	16ccc#\	.	16gg 16a\	.	.	.	.	.	.	.	.	.	.	.	.
.	.	16ccc#\JJ	.	16ggJJ 16a\	.	.	.	.	.	.	.	.	.	.	.	.
*Xtremolo	*	*	*	*	*	*	*	*	*	*	*	*	*	*	*	*
!	!	!	!	!	!	!	!	!LO:PB:g=original	!	!	!	!	!	!	!	!
=85	=85	=85	=85	=85	=85	=85	=85	=85	=85	=85	=85	=85	=85	=85	=85	=85
!	!	!	!	!	!	!	!	!LO:TX:t=P:problem=wymazany takt	!	!	!	!	!	!	!	!
8d\L	.	16ddd\LL	.	16ff#\LL	.	4d\	-te-	4dd\	-lu-	4ff#\	-te-	1ryy	4d\	.	4f#\	.
.	.	16ddd\	.	16ff#\	.	.	.	.	.	.	.	.	.	.	.	.
8d\	.	16ddd\	.	16ff#\	.	.	.	.	.	.	.	.	.	.	.	.
.	.	16ddd\JJ	.	16ff#\JJ	.	.	.	.	.	.	.	.	.	.	.	.
8G\	.	16gg\LL	.	16ee\LL	.	4F#\	.	4g\	-ja	4ee\	.	.	4e\	.	4g\	.
.	.	16gg\	.	16ee\	.	.	.	.	.	.	.	.	.	.	.	.
8G\J	.	16gg\	.	16ee\	.	.	.	.	.	.	.	.	.	.	.	.
.	.	16gg\JJ	.	16ee\JJ	.	.	.	.	.	.	.	.	.	.	.	.
*	*	*	*	*	*	*	*	*	*ij	*	*	*	*	*	*	*
!LO:TX:t=P:problem=mixed beam	!	!	!	!	!	!	!	!	!	!	!	!	!	!	!	!
8A\L	.	16ff#\LL	.	16dd\LL	.	4A\	.	4f#\	al-	4dd\	.	.	4d\	.	4f#\	.
.	.	16ff#\	.	16dd\	.	.	.	.	.	.	.	.	.	.	.	.
8A\	.	16ff#\	.	16dd\	.	.	.	.	.	.	.	.	.	.	.	.
.	.	16ff#\JJ	.	16dd\JJ	.	.	.	.	.	.	.	.	.	.	.	.
8AA/	.	16ee\LL	.	16cc#\LL	.	4AA/	.	4e\	-le-	4cc#\	.	.	4A\	.	4e\	.
.	.	16ee\	.	16cc#\	.	.	.	.	.	.	.	.	.	.	.	.
8AA/J	.	16ee\	.	16cc#\	.	.	.	.	.	.	.	.	.	.	.	.
.	.	16ee\JJ	.	16cc#\JJ	.	.	.	.	.	.	.	.	.	.	.	.
*	*	*Xtremolo	*	*Xtremolo	*	*	*	*	*	*	*	*	*	*	*	*
=86	=86	=86	=86	=86	=86	=86	=86	=86	=86	=86	=86	=86	=86	=86	=86	=86
2D\	.	2dd\	.	2dd\	.	2D\	-mus	2f#\	-lu-	2dd\	-mus	1ryy	2F#/	.	2d\	.
2r	.	2r	.	2r	.	4F#\	al-	4a\	-ja	4dd\	al-	.	2r	.	2r	.
*	*	*	*	*	*	*	*	*	*Xij	*	*	*	*	*	*	*
.	.	.	.	.	.	4F#\	-le-	4a\	can-	4dd\	-le-	.	.	.	.	.
!	!	!	!	!	!	!	!	!	!	!LO:LB:g=original	!	!	!	!	!	!
=87	=87	=87	=87	=87	=87	=87	=87	=87	=87	=87	=87	=87	=87	=87	=87	=87
1r	.	1r	.	1r	.	4G\	-lu-	4b\	-te-	4ee\	-lu-	1ryy	1r	.	1r	.
.	.	.	.	.	.	4F#\	ja	4a\	.	4dd\	-ja	.	.	.	.	.
*	*	*	*	*	*	*	*ij	*	*	*	*ij	*	*	*	*	*
.	.	.	.	.	.	4E\	al-	4g\	.	4cc#\	al-	.	.	.	.	.
.	.	.	.	.	.	4D\	-le-	4f#\	.	4dd\	-le-	.	.	.	.	.
=88	=88	=88	=88	=88	=88	=88	=88	=88	=88	=88	=88	=88	=88	=88	=88	=88
2r	.	2r	.	2r	.	2C#\	-lu-	2e/	-mus	2gg\	-lu-	1ryy	2r	.	2r	.
*tremolo	*	*tremolo	*	*tremolo	*	*	*	*	*	*	*	*	*	*	*	*
8A\L	.	16ccc#\LL	.	16ggLL 16a\	.	4A,<\	-ja	4cc#\	.	4gg\	-ja	.	4A/	.	4e\	.
*	*	*	*	*	*	*	*Xij	*	*	*	*Xij	*	*	*	*	*
.	.	16ccc#\	.	16gg 16a\	.	.	.	.	.	.	.	.	.	.	.	.
8A\	.	16ccc#\	.	16gg 16a\	.	.	.	.	.	.	.	.	.	.	.	.
.	.	16ccc#\	.	16gg 16a\	.	.	.	.	.	.	.	.	.	.	.	.
8A\	.	16ccc#\	.	16gg 16a\	.	4A\	can-	4cc#\	can-	4gg\	can-	.	4A/	.	4e\	.
.	.	16ccc#\	.	16gg 16a\	.	.	.	.	.	.	.	.	.	.	.	.
8A\J	.	16ccc#\	.	16gg 16a\	.	.	.	.	.	.	.	.	.	.	.	.
.	.	16ccc#\JJ	.	16ggJJ 16a\	.	.	.	.	.	.	.	.	.	.	.	.
*Xtremolo	*	*	*	*	*	*	*	*	*	*	*	*	*	*	*	*
!	!	!	!	!LO:LB:g=original	!	!LO:LB:g=original	!	!	!	!	!	!	!LO:LB:g=original	!	!	!
=89	=89	=89	=89	=89	=89	=89	=89	=89	=89	=89	=89	=89	=89	=89	=89	=89
8d\L	.	16ddd\LL	.	16ff#\LL	.	4d\	-te-	4dd\	-te-	4ff#\	-te-	1ryy	4d\	.	4f#\	.
.	.	16ddd\	.	16ff#\	.	.	.	.	.	.	.	.	.	.	.	.
8d\	.	16ddd\	.	16ff#\	.	.	.	.	.	.	.	.	.	.	.	.
.	.	16ddd\JJ	.	16ff#\JJ	.	.	.	.	.	.	.	.	.	.	.	.
8G\	.	16gg\LL	.	16ee\LL	.	4F#\	.	4g\	.	4ee\	.	.	4e\	.	4g\	.
.	.	16gg\	.	16ee\	.	.	.	.	.	.	.	.	.	.	.	.
8G\J	.	16gg\	.	16ee\	.	.	.	.	.	.	.	.	.	.	.	.
.	.	16gg\JJ	.	16ee\JJ	.	.	.	.	.	.	.	.	.	.	.	.
!LO:TX:t=P:problem=mixed beam	!	!	!	!	!	!	!	!	!	!	!	!	!	!	!	!
8A\L	.	16ff#\LL	.	16dd\LL	.	4A\	.	4f#\	.	4dd\	.	.	4d\	.	4f#\	.
.	.	16ff#\	.	16dd\	.	.	.	.	.	.	.	.	.	.	.	.
8A\	.	16ff#\	.	16dd\	.	.	.	.	.	.	.	.	.	.	.	.
.	.	16ff#\JJ	.	16dd\JJ	.	.	.	.	.	.	.	.	.	.	.	.
8AA/	.	16ee\LL	.	16cc#\LL	.	4AA/	.	4e\	.	4cc#\	.	.	4A\	.	4e\	.
.	.	16ee\	.	16cc#\	.	.	.	.	.	.	.	.	.	.	.	.
8AA/J	.	16ee\	.	16cc#\	.	.	.	.	.	.	.	.	.	.	.	.
.	.	16ee\JJ	.	16cc#\JJ	.	.	.	.	.	.	.	.	.	.	.	.
*	*	*Xtremolo	*	*Xtremolo	*	*	*	*	*	*	*	*	*	*	*	*
!	!	!	!	!	!	!	!	!LO:LB:g=original	!	!	!	!	!	!	!LO:LB:g=original	!
=90	=90	=90	=90	=90	=90	=90	=90	=90	=90	=90	=90	=90	=90	=90	=90	=90
4D\	.	4dd\	.	4dd\	.	4D\	-mus	2f#\	-mus	4dd\	-mus	1ryy	4F#/	.	4d\	.
4r	.	4r	.	4r	.	4r	.	.	.	4r	.	.	8.f#\L	.	8.a\L	.
.	.	.	.	.	.	.	.	.	.	.	.	.	16e\Jk	.	16g\Jk	.
4r	.	4r	.	4r	.	4r	.	4r	.	4r	.	.	4d\	.	4f#\	.
4AA/	.	4ee 4a\	.	4ccc# 4a\	.	8A\	al-	8cc#\	al-	8ee\	al-	.	4A\	.	4e\	.
.	.	.	.	.	.	8A\	-le-	8cc#\	.	8ee\	.	.	.	.	.	.
=91	=91	=91	=91	=91	=91	=91	=91	=91	=91	=91	=91	=91	=91	=91	=91	=91
4D\	.	4ff# 4a 4d\	.	4ddd 4a\	.	4d\	.	4dd\	-le-	4ff#\	-le-	1ryy	4F#/	.	4d\	.
4r	.	4r	.	4r	.	4r	.	4r	.	4r	.	.	8.f#\L	.	8.a\L	.
.	.	.	.	.	.	.	.	.	.	.	.	.	16e\Jk	.	16g\Jk	.
4r	.	4r	.	4r	.	4r	.	4r	.	4r	.	.	4d\	.	4f#\	.
4AA/	.	4ee 4a\	.	4ccc# 4a\	.	8A\	.	8cc#\	lu-	8ee\	-lu-	.	4A\	.	4e\	.
.	.	.	.	.	.	8A\	-lu-	8cc#\	.	8ee\	.	.	.	.	.	.
!	!	!	!	!	!	!	!	!	!	!LO:LB:g=original	!	!	!	!	!	!
=92	=92	=92	=92	=92	=92	=92	=92	=92	=92	=92	=92	=92	=92	=92	=92	=92
*	*	*	*	*^	*	*	*	*	*	*	*	*	*	*	*	*
2D\	.	2dd 2f#\	.	2ddd\	2a 2d/	.	2D\	-ja	2dd\	-ja	2dd\	-ja	1ryy	2D/	.	2d\	.
!LO:TX:a:i:t=il fine	!	!LO:TX:a:i:t=il fine	!	!	!	!	!LO:TX:a:i:t=il f	!	!	!	!LO:TX:a:i:t=il fine	!	!	!	!	!	!
2r	.	2r	.	2r	2ryy	.	2r	.	2r	.	2r	.	.	2r	.	2r	.
*	*	*	*	*v	*v	*	*	*	*	*	*	*	*	*	*	*	*
==	==	==	==	==	==	==	==	==	==	==	==	==	==	==	==	==
*-	*-	*-	*-	*-	*-	*-	*-	*-	*-	*-	*-	*-	*-	*-	*-	*-
!!!system-decoration: [(g1)]<s3>[(g2)][(g3)]
!!!RDF**kern: < = below
!!!RDF**kern: | = vertical stroke
!!!RDF**dynam: p = "p:"
!!!RDF**dynam: f = "for"
!!!RDF**dynam: mf = "mezofor"
!!!RDF**dynam: pp = "pianiſ"
!!!RDF**dynam: ff = "fortiſ"
!!!ENC: Krzysztof Stępień
!!!END: 2020-10-07
!!!ENC: Andrzej Kubiczek
!!!END: 2022-01-28
!!!YEC: Copyright 2022 Narodowy Instytut Fryderyka Chopina (https://polishscores.org)
!!!YEM: Licence CC BY 4.0 (https://creativecommons.org/licenses/by/4.0)
